(Generated by PartKam Version 0.05)

G20 G90 G40

(follow path 1)
G0 Z0.15
T0 M6
G17
M3
G0 X4.2863 Y35.2692
G1 Z-0.5 F30
G3 X3.8157 Y35.0946 I2.3596 J-7.0788 F60
G3 X3.4098 Y34.91 I2.2324 J-5.4457
G3 X2.9769 Y34.6667 I2.3639 J-4.7142
G3 X2.6075 Y34.408 I2.3066 J-3.6871
G3 X2.5166 Y34.3246 I0.4419 J-0.5725
G3 X2.4379 Y34.2233 I0.5748 J-0.5277
G3 X2.3821 Y34.124 I0.7252 J-0.4733
G3 X2.3314 Y34.0008 I1.0657 J-0.5101
G3 X2.2992 Y33.8949 I1.3496 J-0.4678
G3 X2.2674 Y33.7563 I2.2798 J-0.5971
G3 X2.2521 Y33.6727 I2.8197 J-0.5593
G3 X2.2253 Y33.5057 I11.215 J-1.8817
G2 X2.2091 Y33.4014 I-16.9497 J2.5854
G2 X2.2007 Y33.3508 I-3.9901 J0.6338
G3 X2.1549 Y33.0554 I45.3086 J-7.1782
G3 X2.1267 Y32.8628 I19.2468 J-2.9208
G3 X2.0911 Y32.5952 I15.725 J-2.2257
G3 X2.0658 Y32.3729 I10.8233 J-1.3447
G3 X2.0267 Y31.8312 I8.6977 J-0.8999
G3 X2.0254 Y31.3863 I5.8638 J-0.2404
G2 X2.0278 Y31.2122 I-6.3431 J-0.177
G2 X2.0256 Y30.8624 I-25.5917 J-0.0116
G3 X2.0234 Y30.5037 I25.0071 J-0.3305
G3 X2.0262 Y30.3249 I6.221 J0.007
G3 X2.0437 Y30.0275 I5.1602 J0.1543
G3 X2.0731 Y29.7906 I3.3046 J0.2902
G3 X2.2415 Y29.245 I7.2514 J1.9388
G3 X2.4329 Y28.7648 I5.8062 J2.0366
G3 X2.6908 Y28.2598 I5.0974 J2.2849
G3 X2.9755 Y27.8236 I4.0824 J2.3535
G3 X3.0337 Y27.7398 I2.6013 J1.7414
G3 X3.11 Y27.6363 I4.0381 J2.8981
G3 X3.157 Y27.575 I4.7863 J3.6263
G3 X3.2526 Y27.453 I19.1094 J14.8684
G2 X3.3554 Y27.3216 I-17.7082 J-13.9611
G2 X3.4059 Y27.2555 I-4.4304 J-3.4401
G2 X3.4876 Y27.1435 I-3.7133 J-2.796
G2 X3.5496 Y27.0524 I-2.3976 J-1.6957
G2 X3.6851 Y26.8143 I-1.8997 J-1.2393
G2 X3.7684 Y26.6075 I-1.3472 J-0.6627
G2 X3.7729 Y26.4748 I-0.4462 J-0.0816
G2 X3.7385 Y26.3441 I-0.4665 J0.053
G2 X3.675 Y26.2344 I-0.4769 J0.2027
G2 X3.5797 Y26.1339 I-0.4943 J0.3735
G2 X3.4674 Y26.0577 I-0.4244 J0.5043
G2 X3.3421 Y26.0061 I-0.3116 J0.5794
G2 X3.2045 Y25.982 I-0.175 J0.5929
G2 X3.076 Y25.99 I-0.0318 J0.5244
G2 X2.9369 Y26.0057 I0.023 J0.8279
G2 X2.8011 Y26.0449 I0.1653 J0.828
G2 X2.6867 Y26.0978 I0.3267 J0.8563
G2 X2.5638 Y26.1752 I0.5866 J1.0682
G2 X2.4682 Y26.2498 I0.8538 J1.1922
G2 X2.3527 Y26.3545 I1.5723 J1.8511
G2 X2.2865 Y26.4205 I2.0713 J2.143
G2 X2.1566 Y26.5563 I8.6316 J8.3873
G3 X2.0181 Y26.7006 I-7.8839 J-7.4251
G3 X1.9496 Y26.7681 I-1.7889 J-1.7483
G2 X1.951 Y26.6864 I-3.5922 J-0.1005
G2 X1.9509 Y26.5213 I-14.7093 J-0.0774
G3 X1.9505 Y26.3985 I20.0387 J-0.1195
G3 X1.9509 Y26.3371 I5.0088 J0.0008
G3 X1.9535 Y26.2348 I4.1592 J0.0516
G3 X1.9577 Y26.1535 I2.633 J0.0975
G3 X1.9816 Y25.9518 I2.0296 J0.1381
G3 X2.0188 Y25.7932 I1.2895 J0.2184
G3 X2.0585 Y25.7152 I0.3975 J0.1533
G3 X2.1122 Y25.6488 I0.3399 J0.2198
G3 X2.1705 Y25.5998 I0.3095 J0.3095
G3 X2.2471 Y25.5542 I0.3441 J0.4911
G3 X2.3153 Y25.5244 I0.33 J0.662
G3 X2.4078 Y25.4934 I0.451 J1.1914
G3 X2.4641 Y25.478 I0.4456 J1.5196
G3 X2.5784 Y25.4501 I1.5764 J6.2166
G2 X2.7049 Y25.4189 I-1.2215 J-5.2168
G2 X2.7631 Y25.4021 I-0.2916 J-1.1216
G2 X3.0897 Y25.3129 I-0.6175 J-2.9016
G2 X3.4244 Y25.1801 I-1.0675 J-3.1797
G2 X3.7163 Y25.0296 I-1.5313 J-3.3276
G2 X4.0264 Y24.8346 I-2.2682 J-3.9525
G2 X4.2878 Y24.6429 I-2.9237 J-4.2609
G2 X4.5771 Y24.4036 I-4.271 J-5.4564
G2 X4.8074 Y24.1944 I-5.3596 J-6.1316
G2 X5.0841 Y23.925 I-8.6153 J-9.1278
G2 X5.119 Y23.8917 I-0.8509 J-0.926
G2 X5.1878 Y23.8221 I-3.6516 J-3.6801
G3 X5.2721 Y23.7376 I3.0845 J2.9934
G3 X5.3156 Y23.6976 I0.7364 J0.7554
G3 X5.3932 Y23.6374 I0.5674 J0.6515
G3 X5.4612 Y23.5973 I0.3168 J0.4602
G2 X6.0367 Y23.8502 I5.9972 J-12.8645
G2 X6.6712 Y24.0974 I6.361 J-15.3899
G2 X7.2587 Y24.3013 I6.2554 J-17.0812
G2 X7.9157 Y24.5055 I6.9349 J-21.1492
G2 X7.9207 Y24.5071 I1.2324 J-3.7532
G2 X7.9308 Y24.5104 I4.9944 J-15.2792
G3 X7.9846 Y24.5285 I-0.9858 J3.0225
G3 X8.0114 Y24.5383 I-0.2635 J0.7616
G3 X8.0554 Y24.5572 I-0.2369 J0.6134
G3 X8.0881 Y24.5745 I-0.1682 J0.3561
G3 X8.1574 Y24.6323 I-0.145 J0.2445
G3 X8.1972 Y24.6998 I-0.162 J0.1412
G3 X7.9716 Y24.6991 I-0.0877 J-8.4659
G3 X7.5193 Y24.6888 I0.5543 J-34.0231
G2 X7.1085 Y24.6789 I-1.1091 J37.477
G2 X6.9033 Y24.6773 I-0.174 J9.3429
G2 X6.5617 Y24.6859 I0.0259 J7.7686
G2 X6.2887 Y24.7064 I0.2358 J4.9799
G2 X5.7866 Y24.8932 I0.4719 J2.0369
G2 X5.3452 Y25.2031 I0.9872 J1.8751
G2 X4.9911 Y25.6317 I1.3377 J1.4657
G2 X4.7902 Y26.1086 I1.4655 J0.8983
G2 X4.7145 Y26.4657 I2.0729 J0.6258
G2 X4.6975 Y26.8496 I2.3809 J0.2978
G2 X4.7324 Y27.194 I2.6611 J-0.0956
G2 X4.82 Y27.581 I3.4538 J-0.5786
G2 X4.9285 Y27.907 I3.9471 J-1.1323
G2 X5.088 Y28.2864 I5.5082 J-2.0926
G2 X5.2301 Y28.5765 I6.4664 J-2.9885
G2 X5.4316 Y28.9492 I10.8763 J-5.6384
G2 X5.5873 Y29.2025 I2.1409 J-1.1416
G2 X5.8117 Y29.4901 I2.9874 J-2.0992
G2 X5.9092 Y29.5994 I3.5509 J-3.0674
G2 X6.0352 Y29.7331 I5.4305 J-4.9954
G2 X6.1124 Y29.8119 I6.3863 J-6.1752
G2 X6.2684 Y29.9683 I25.3363 J-25.1147
G3 X6.512 Y30.2148 I-16.0553 J16.1133
G3 X6.6307 Y30.3404 I-4.0511 J3.9437
G3 X6.8183 Y30.5584 I-3.4594 J3.1676
G3 X6.9564 Y30.7432 I-2.3477 J1.8988
G3 X6.7049 Y30.8335 I-0.7235 J-1.6205
G3 X6.3901 Y30.8995 I-0.6832 J-2.4767
G3 X6.1554 Y30.9247 I-0.4598 J-3.1731
G3 X5.8021 Y30.9409 I-0.505 J-7.177
G3 X5.7187 Y30.9387 I-0.0348 J-0.2702
G3 X5.643 Y30.912 I0.045 J-0.2479
G3 X5.5851 Y30.8705 I0.1402 J-0.257
G3 X5.5252 Y30.8038 I0.3139 J-0.3415
G3 X5.4845 Y30.7404 I0.4861 J-0.3574
G3 X5.4418 Y30.6542 I0.8583 J-0.4789
G3 X5.4153 Y30.5881 I1.1173 J-0.487
G3 X5.3855 Y30.5012 I1.9051 J-0.701
G3 X5.3658 Y30.387 I20.6969 J-3.6297
G3 X5.3272 Y30.158 I83.2798 J-14.1323
G2 X5.2808 Y29.8828 I-69.6042 J11.6148
G2 X5.2567 Y29.7453 I-17.3965 J2.9737
G2 X5.2139 Y29.5166 I-14.4604 J2.5897
G2 X5.1764 Y29.3346 I-9.1943 J1.7973
G2 X5.064 Y28.8843 I-7.1237 J1.5399
G2 X4.9483 Y28.5309 I-4.5022 J1.2779
G2 X4.8109 Y28.2569 I-1.3553 J0.5082
G2 X4.6212 Y28.0216 I-1.1839 J0.7604
G2 X4.3773 Y27.829 I-0.9477 J0.9491
G2 X4.1076 Y27.7051 I-0.6416 J1.0408
G2 X4.0006 Y27.6698 I-0.2136 J0.4678
G2 X3.886 Y27.6581 I-0.1113 J0.5257
G2 X3.7845 Y27.6673 I0.0036 J0.6057
G2 X3.6662 Y27.6969 I0.1505 J0.8534
G2 X3.5721 Y27.7326 I0.3328 J1.0203
G2 X3.4543 Y27.7888 I0.7171 J1.6537
G2 X3.3863 Y27.8258 I1.0149 J1.942
G2 X3.2564 Y27.9013 I4.0764 J7.1708
G3 X3.2409 Y27.9105 I-31.6118 J-53.3237
G3 X3.2332 Y27.915 I-7.7308 J-13.0493
G2 X3.0382 Y28.0653 I0.8036 J1.2446
G2 X2.8647 Y28.2513 I1.0655 J1.1676
G2 X2.7296 Y28.4493 I1.3165 J1.0431
G2 X2.6156 Y28.6792 I1.6633 J0.9683
G2 X2.4818 Y29.1428 I1.9786 J0.822
G2 X2.4494 Y29.6589 I2.4252 J0.4115
G2 X2.4657 Y29.9672 I24.9148 J-1.1617
G2 X2.4793 Y30.1651 I10.2776 J-0.6068
G2 X2.5057 Y30.4432 I8.3552 J-0.655
G2 X2.5359 Y30.6709 I5.6303 J-0.6308
G2 X2.5842 Y30.9364 I4.8287 J-0.7403
G2 X2.6403 Y31.167 I3.6959 J-0.7776
G2 X2.7207 Y31.4189 I3.2807 J-0.9087
G2 X2.8133 Y31.644 I2.7114 J-0.9833
G2 X3.1769 Y32.4016 I12.5587 J-5.5611
G2 X3.531 Y33.0291 I8.9663 J-4.6457
G2 X3.9923 Y33.7096 I7.5713 J-4.6359
G2 X4.4641 Y34.2771 I5.7306 J-4.2849
G2 X4.5945 Y34.4219 I5.0718 J-4.4344
G2 X4.7618 Y34.5984 I7.7053 J-7.1403
G2 X4.8641 Y34.7025 I9.0477 J-8.7823
G2 X5.0705 Y34.9091 I35.8017 J-35.5656
G3 X5.2881 Y35.127 I-33.7595 J33.9272
G3 X5.3958 Y35.237 I-8.4903 J8.4234
G3 X5.5717 Y35.4236 I-7.164 J6.9268
G3 X5.7082 Y35.5772 I-4.7115 J4.3266
G3 X5.3831 Y35.5522 I0.04 J-2.6466
G3 X4.9862 Y35.4766 I0.5608 J-4.0269
G3 X4.8285 Y35.4358 I1.229 J-5.0705
G3 X4.634 Y35.3795 I2.1431 J-7.7734
G3 X4.5117 Y35.3416 I2.8462 J-9.3962
G3 X4.2863 Y35.2692 I10.1383 J-31.9605
G0 Z0.15
G0 X12.8468 Y26.5277
G1 Z-0.5 F30
G3 X12.8495 Y26.3424 I1.0767 J-0.0768 F60
G3 X12.8844 Y26.1549 I1.1381 J0.1149
G3 X12.9506 Y25.9749 I1.0876 J0.2982
G3 X13.0423 Y25.8176 I0.9206 J0.431
G3 X13.1674 Y25.6747 I0.7607 J0.5399
G3 X13.3083 Y25.57 I0.5431 J0.5833
G3 X13.4811 Y25.4961 I0.3804 J0.6508
G3 X13.6701 Y25.4663 I0.2152 J0.7511
G3 X13.6767 Y25.7409 I-3.135 J0.2132
G3 X13.6581 Y26.0827 I-4.8816 J-0.0954
G3 X13.6443 Y26.2195 I-6.2325 J-0.5603
G3 X13.6237 Y26.3895 I-9.6474 J-1.0815
G3 X13.6095 Y26.4946 I-11.6564 J-1.5153
G3 X13.5812 Y26.6948 I-42.2756 J-5.8841
G2 X13.5607 Y26.8416 I6.9088 J1.0406
G2 X13.5242 Y27.1364 I27.8163 J3.5876
G3 X13.4837 Y27.4616 I-25.2472 J-2.9848
G3 X13.4603 Y27.6235 I-6.2779 J-0.8244
G3 X13.4109 Y27.8913 I-5.1993 J-0.8198
G3 X13.3589 Y28.1036 I-3.3172 J-0.7006
G3 X13.1604 Y27.7574 I2.1357 J-1.4543
G3 X13.0009 Y27.3496 I2.8122 J-1.3351
G3 X12.9038 Y26.9593 I3.2826 J-1.0242
G3 X12.8468 Y26.5277 I3.9613 J-0.7431
G0 Z0.15
G0 X11.6652 Y26.4997
G1 Z-0.5 F30
G2 X11.104 Y26.1132 I-4.2493 J5.5699 F60
G2 X10.3637 Y25.6938 I-5.7479 J9.2832
G2 X10.0592 Y25.5413 I-6.4501 J12.4973
G2 X9.6737 Y25.3586 I-9.6444 J19.8516
G2 X9.4409 Y25.2523 I-11.1215 J24.0648
G2 X8.9745 Y25.0436 I-43.4325 J96.4122
G3 X8.8702 Y24.9972 I191.1373 J-429.8235
G3 X8.8181 Y24.974 I47.7109 J-107.2206
G3 X8.7387 Y24.9299 I0.2839 J-0.6049
G3 X8.6517 Y24.8662 I0.5112 J-0.7889
G3 X8.5911 Y24.8125 I0.7382 J-0.8952
G3 X8.5077 Y24.7294 I1.6879 J-1.778
G3 X8.699 Y24.7432 I-0.0865 J2.5362
G3 X8.9367 Y24.7767 I-0.4348 J3.9475
G3 X9.0783 Y24.8032 I-0.8111 J4.7207
G3 X9.3603 Y24.8627 I-3.8126 J18.785
G2 X9.3633 Y24.8633 I399.437 J-1826.7153
G2 X9.3648 Y24.8636 I100.2755 J-458.5859
G2 X10.2894 Y25.0472 I6.9207 J-32.4407
G2 X11.1338 Y25.1888 I4.9456 J-26.9087
G2 X12.0582 Y25.3115 I3.7732 J-24.8866
G2 X12.92 Y25.3922 I2.4548 J-21.551
G3 X12.8876 Y25.44 I-1.657 J-1.0905
G3 X12.8198 Y25.5353 I-6.6547 J-4.6629
G2 X12.7688 Y25.6066 I8.8769 J6.4123
G2 X12.7437 Y25.6424 I2.2234 J1.5792
G2 X12.7034 Y25.7032 I1.8623 J1.2783
G2 X12.6732 Y25.7526 I1.1993 J0.7674
G2 X12.609 Y25.8813 I0.9465 J0.5528
G2 X12.5726 Y25.9925 I0.6684 J0.2804
G2 X12.5372 Y26.161 I1.0662 J0.3121
G2 X12.5232 Y26.3712 I1.6493 J0.2149
G2 X12.5247 Y26.456 I2.1526 J0.006
G2 X12.5302 Y26.5626 I3.4062 J-0.1247
G2 X12.5351 Y26.6265 I4.1051 J-0.2792
G2 X12.5463 Y26.7544 I16.4963 J-1.3802
G3 X12.5572 Y26.8787 I-16.9442 J1.5502
G3 X12.5619 Y26.9407 I-4.2052 J0.3537
G3 X12.5676 Y27.0441 I-3.484 J0.2414
G3 X12.5693 Y27.1262 I-2.1986 J0.087
G3 X12.4238 Y27.057 I0.488 J-1.2127
G3 X12.2555 Y26.9524 I0.9578 J-1.729
G3 X12.1592 Y26.882 I1.36 J-1.962
G3 X11.9708 Y26.7332 I5.8971 J-7.6592
G2 X11.8707 Y26.6527 I-11.4132 J14.0853
G2 X11.8203 Y26.613 I-2.8182 J3.5289
G2 X11.7349 Y26.5487 I-2.2985 J2.9635
G2 X11.6652 Y26.4997 I-1.4073 J1.9253
G0 Z0.15
G0 X9.1738 Y24.1177
G1 Z-0.5 F30
G2 X9.142 Y24.1179 I0.1465 J19.6896 F60
G2 X9.078 Y24.1186 I0.7262 J80.2187
G3 X8.8113 Y24.1194 I-0.1988 J-20.1776
G3 X8.6765 Y24.1172 I0.0174 J-5.1554
G3 X8.4512 Y24.1046 I0.1257 J-4.2591
G3 X8.275 Y24.084 I0.2168 J-2.6219
G3 X8.0656 Y24.0419 I0.3279 J-2.1708
G3 X7.8906 Y23.987 I0.3962 J-1.5696
G3 X7.7031 Y23.9006 I0.5114 J-1.3562
G3 X7.5402 Y23.7941 I0.6207 J-1.1276
G3 X7.2794 Y23.5496 I2.9818 J-3.4417
G3 X7.0202 Y23.2667 I3.7359 J-3.6836
G3 X6.8013 Y22.9929 I4.3598 J-3.7111
G3 X6.5763 Y22.6754 I5.6445 J-4.2374
G3 X6.3913 Y22.385 I6.6122 J-4.4159
G3 X6.1913 Y22.0411 I9.071 J-5.5056
G3 X6.0358 Y21.753 I10.9098 J-6.0741
G3 X5.8482 Y21.385 I17.6233 J-9.2152
G3 X5.7875 Y21.2414 I1.7114 J-0.8081
G3 X5.7252 Y21.0571 I2.7605 J-1.0353
G3 X5.6934 Y20.9446 I3.4088 J-1.0277
G3 X5.6349 Y20.7174 I13.8681 J-3.6889
G2 X5.5994 Y20.5765 I-22.4894 J5.5899
G2 X5.581 Y20.5064 I-5.5842 J1.4252
G2 X5.5483 Y20.3903 I-4.6181 J1.2407
G2 X5.5195 Y20.2986 I-2.9073 J0.8603
G2 X5.433 Y20.0756 I-2.2326 J0.7384
G2 X5.3427 Y19.9037 I-1.4139 J0.6334
G2 X5.2644 Y19.8278 I-0.5654 J0.5042
G2 X5.1566 Y19.7475 I-0.7397 J0.8811
G2 X5.0877 Y19.705 I-0.7686 J1.1692
G2 X4.9449 Y19.6253 I-2.8494 J4.935
G3 X4.806 Y19.5479 I2.7675 J-5.1275
G3 X4.7391 Y19.5069 I0.7079 J-1.23
G3 X4.4048 Y19.2731 I1.0928 J-1.9189
G3 X4.1112 Y18.9751 I1.4998 J-1.771
G3 X3.8766 Y18.631 I1.8052 J-1.4827
G3 X3.7099 Y18.2562 I1.979 J-1.1047
G3 X3.6863 Y18.0912 I4.4969 J-0.729
G3 X3.6744 Y17.9716 I2.3532 J-0.2936
G3 X3.6694 Y17.8088 I1.9117 J-0.1406
G3 X3.6778 Y17.6782 I1.2378 J0.0143
G3 X3.7076 Y17.5268 I1.0032 J0.1183
G3 X3.7535 Y17.4052 I0.6902 J0.1912
G3 X3.8318 Y17.2821 I0.573 J0.2782
G3 X3.9347 Y17.1817 I0.4811 J0.3902
G3 X4.1193 Y17.023 I1.2233 J1.2361
G3 X4.3324 Y16.8855 I1.1279 J1.5144
G3 X4.536 Y16.7869 I1.0039 J1.8129
G3 X4.7806 Y16.6979 I1.0597 J2.5311
G3 X4.9898 Y16.6404 I0.9708 J3.1203
G3 X5.2604 Y16.5829 I1.2373 J5.1636
G3 X5.4239 Y16.5548 I1.1779 J6.3614
G3 X5.7531 Y16.5047 I4.089 J25.755
G2 X5.9544 Y16.4749 I-6.0553 J-41.5609
G2 X6.0538 Y16.4594 I-1.5315 J-10.1663
G2 X6.219 Y16.4312 I-1.3382 J-8.3286
G2 X6.348 Y16.4061 I-0.9242 J-5.1027
G2 X6.6921 Y16.3698 I-2.3167 J-23.5809
G2 X6.8828 Y16.3457 I-0.8205 J-7.2598
G2 X7.1802 Y16.2964 I-0.825 J-5.9042
G2 X7.4146 Y16.2437 I-0.7128 J-3.7182
G2 X7.6895 Y16.1593 I-0.7975 J-3.086
G2 X7.9187 Y16.0636 I-0.8005 J-2.2408
G2 X8.1619 Y15.9267 I-0.9232 J-1.923
G2 X8.3702 Y15.7688 I-1.0227 J-1.5662
G2 X8.5522 Y15.5992 I-2.9789 J-3.3782
G2 X8.7018 Y15.4421 I-2.4018 J-2.4379
G2 X8.8625 Y15.2461 I-2.2151 J-1.9802
G2 X8.9854 Y15.0645 I-1.7787 J-1.3358
G2 X9.0997 Y14.8456 I-1.6451 J-0.9984
G2 X9.173 Y14.6411 I-1.3625 J-0.6037
G2 X9.2164 Y14.406 I-1.2988 J-0.3611
G2 X9.2166 Y14.1773 I-1.2289 J-0.1154
G2 X9.1994 Y14.0888 I-0.5632 J0.0631
G2 X9.1685 Y14.0041 I-0.5456 J0.1515
G2 X9.1301 Y13.9333 I-0.5515 J0.2531
G2 X9.0766 Y13.8586 I-0.6678 J0.4215
G2 X9.026 Y13.8009 I-0.7336 J0.5926
G2 X8.9558 Y13.7317 I-1.1256 J1.0717
G2 X8.9117 Y13.6922 I-1.2971 J1.4022
G2 X8.8208 Y13.6143 I-5.1275 J5.8995
G3 X8.739 Y13.5446 I5.5792 J-6.6214
G3 X8.6994 Y13.5095 I1.3754 J-1.5918
G3 X8.6357 Y13.4485 I1.1501 J-1.2652
G3 X8.5892 Y13.3984 I0.7319 J-0.7262
G2 X8.5848 Y13.2868 I-0.5826 J-0.0332
G2 X8.5596 Y13.1803 I-0.5539 J0.0751
G2 X8.5206 Y13.0911 I-0.5673 J0.1947
G2 X8.4605 Y12.9959 I-0.705 J0.379
G2 X8.4013 Y12.9231 I-0.7837 J0.5762
G2 X8.3168 Y12.8356 I-1.2193 J1.0922
G2 X8.2634 Y12.786 I-1.3993 J1.4548
G2 X8.1537 Y12.6896 I-5.4081 J6.0447
G3 X8.1338 Y12.6725 I28.5897 J-33.1365
G3 X8.124 Y12.664 I7.0722 J-8.187
G1 X8.124 Y12.664
G2 X8.3043 Y12.6268 I-54.6948 J-266.1815
G2 X8.3636 Y12.6146 I-5.938 J-28.7995
G2 X8.3033 Y12.4769 I-1.9642 J0.7783
G2 X8.2171 Y12.3102 I-2.9701 J1.4288
G2 X8.1612 Y12.2123 I-3.4798 J1.9252
G2 X8.0446 Y12.0181 I-13.8129 J8.1617
G3 X7.9188 Y11.8082 I12.7238 J-7.7626
G3 X7.8587 Y11.7019 I3.2021 J-1.8821
G3 X7.7674 Y11.5202 I2.7117 J-1.4761
G3 X7.7049 Y11.3688 I1.8187 J-0.8399
G3 X7.6268 Y11.1924 I1.5783 J-0.8041
G3 X7.5639 Y10.9968 I1.8808 J-0.7128
G3 X7.5241 Y10.8179 I2.1461 J-0.5709
G3 X7.4945 Y10.6098 I2.8758 J-0.5158
G3 X7.4805 Y10.4352 I3.4289 J-0.3632
G3 X7.4728 Y10.214 I5.4992 J-0.3012
G3 X7.4722 Y10.0812 I6.6652 J-0.0968
G3 X7.475 Y9.8152 I26.7666 J0.1445
G2 X7.4777 Y9.5394 I-25.4282 J-0.3901
G2 X7.4768 Y9.4035 I-6.1822 J-0.0278
G3 X7.4803 Y9.1 I6.0045 J-0.0834
G3 X7.5018 Y8.7213 I9.3731 J0.3437
G3 X7.5216 Y8.4945 I11.2457 J0.8688
G3 X7.5682 Y8.0414 I44.9416 J4.3859
G2 X7.5848 Y7.8867 I-131.0384 J-14.1237
G2 X7.5929 Y7.8094 I-32.6935 J-3.4848
G3 X7.657 Y7.4294 I7.8106 J1.1219
G3 X7.7577 Y6.9592 I12.0639 J2.3389
G3 X7.8265 Y6.6788 I14.377 J3.3759
G3 X7.9723 Y6.1195 I57.3476 J14.6545
G2 X8.0552 Y5.806 I-101.9365 J-27.1117
G2 X8.0959 Y5.6492 I-25.4726 J-6.6911
G2 X8.1613 Y5.3871 I-21.239 J-5.4395
G2 X8.2106 Y5.1771 I-13.6047 J-3.3063
G2 X8.3168 Y4.6487 I-10.6491 J-2.4148
G2 X8.3784 Y4.2204 I-6.9315 J-1.2157
G2 X8.3921 Y4.0513 I-1.396 J-0.1981
G2 X8.3862 Y3.8432 I-2.1242 J-0.0438
G2 X8.3734 Y3.7184 I-2.5533 J0.1981
G2 X8.3386 Y3.4688 I-10.2611 J1.304
G3 X8.3196 Y3.341 I20.0003 J-3.0386
G3 X8.3107 Y3.2771 I4.9894 J-0.7254
G3 X8.298 Y3.1704 I4.1532 J-0.5497
G3 X8.2903 Y3.085 I2.652 J-0.282
G3 X8.3192 Y3.029 I0.8182 J0.3868
G3 X8.3596 Y2.9615 I1.2296 J0.6899
G3 X8.3856 Y2.9219 I1.4341 J0.9134
G3 X8.4393 Y2.8437 I5.6798 J3.8434
G2 X8.5022 Y2.7515 I-4.8117 J-3.354
G2 X8.5324 Y2.7046 I-1.2171 J-0.8144
G2 X8.4711 Y2.6923 I-0.1778 J0.7235
G2 X8.3942 Y2.6827 I-0.1788 J1.1297
G2 X8.3477 Y2.6794 I-0.1226 J1.3702
G2 X8.2545 Y2.675 I-0.3064 J5.5242
G3 X8.1465 Y2.6696 I0.1844 J-4.7836
G3 X8.0927 Y2.6651 I0.0729 J-1.1919
G2 X7.9813 Y2.5617 I-3.8941 J4.0812
G2 X7.7545 Y2.3594 I-15.1287 J16.7358
G3 X7.5732 Y2.1985 I18.7488 J-21.3107
G3 X7.4834 Y2.1167 I4.7502 J-5.3073
G2 X7.4544 Y2.0838 I-13.1163 J11.5236
G2 X7.3957 Y2.0174 I-53.3647 J47.1228
G3 X7.2043 Y1.7984 I16.8691 J-14.9334
G3 X7.1101 Y1.6863 I4.3251 J-3.7303
G3 X6.96 Y1.4929 I3.6486 J-2.9872
G3 X6.8511 Y1.3341 I2.3491 J-1.7276
G3 X6.7358 Y1.1331 I2.0579 J-1.3135
G3 X6.6547 Y0.9505 I1.617 J-0.8278
G3 X6.5895 Y0.7354 I1.5289 J-0.5808
G3 X6.5571 Y0.5252 I1.4273 J-0.3275
G3 X6.766 Y0.5634 I-0.0518 J0.8725
G3 X7.0023 Y0.6643 I-0.3815 J1.2209
G3 X7.0918 Y0.7173 I-0.8197 J1.4861
G3 X7.2018 Y0.7909 I-1.4711 J2.3184
G3 X7.2662 Y0.8374 I-1.9222 J2.7292
G3 X7.3935 Y0.9328 I-7.9871 J10.7862
G2 X7.5356 Y1.039 I7.0828 J-9.3315
G2 X7.6061 Y1.0892 I1.6497 J-2.2432
G3 X8.1126 Y1.5006 I-19.2104 J24.1726
G3 X8.4357 Y1.7776 I-8.3887 J10.1093
G3 X8.8661 Y2.1807 I-7.0833 J7.9943
G3 X9.2017 Y2.5358 I-5.1588 J5.212
G3 X9.2534 Y2.6005 I-0.2248 J0.2327
G3 X9.2963 Y2.6915 I-0.409 J0.2486
G3 X9.3194 Y2.7766 I-0.5851 J0.204
G3 X9.335 Y2.8896 I-1.0152 J0.1983
G3 X9.3394 Y2.982 I-1.3171 J0.1091
G3 X9.3377 Y3.1013 I-2.1956 J0.0277
G3 X9.3338 Y3.171 I-2.5932 J-0.1083
G3 X9.3242 Y3.298 I-8.6472 J-0.5942
G2 X9.319 Y3.3619 I12.0232 J1.004
G2 X9.317 Y3.3896 I2.2689 J0.1773
G2 X9.3181 Y3.4892 I0.2821 J0.0468
G2 X9.3505 Y3.568 I0.2056 J-0.0386
G2 X9.4029 Y3.622 I0.1801 J-0.1221
G2 X9.4746 Y3.6578 I0.1444 J-0.1992
G2 X9.5501 Y3.6688 I0.0728 J-0.2352
G2 X9.6142 Y3.6563 I-0.002 J-0.1801
G2 X9.6677 Y3.6177 I-0.049 J-0.1243
G2 X9.6944 Y3.5603 I-0.0943 J-0.0788
G3 X9.7014 Y3.5054 I3.5595 J0.425
G3 X9.7274 Y3.316 I42.4751 J5.7375
G2 X9.7569 Y3.1019 I-60.7042 J-8.4758
G2 X9.7703 Y3.0004 I-13.6457 J-1.8563
G2 X9.7909 Y2.8264 I-8.4576 J-1.0865
G2 X9.797 Y2.7524 I-1.5242 J-0.164
G3 X9.8553 Y2.7861 I-1.0898 J1.9488
G3 X9.9708 Y2.8565 I-4.6421 J7.7442
G2 X10.1118 Y2.9418 I3.916 J-6.3162
G2 X10.1834 Y2.9819 I0.9358 J-1.5868
G2 X10.3065 Y3.0404 I0.716 J-1.3479
G2 X10.4104 Y3.0776 I0.3881 J-0.9208
G2 X10.4955 Y3.0884 I0.2349 J-1.5072
G2 X10.6025 Y3.0966 I0.2351 J-2.3811
G2 X10.6669 Y3.0993 I0.1543 J-2.8803
G2 X10.7961 Y3.1026 I0.3616 J-11.5898
G3 X10.9887 Y3.1089 I-0.1552 J7.7416
G3 X11.0842 Y3.1156 I-0.0858 J1.9086
G3 X11.2414 Y3.1386 I-0.15 J1.5738
G3 X11.3664 Y3.1715 I-0.203 J1.0247
G3 X11.2554 Y3.4324 I-11.6538 J-4.7999
G3 X11.1102 Y3.7558 I-18.0595 J-7.9179
G3 X11.0204 Y3.9487 I-21.5188 J-9.8996
G3 X10.8381 Y4.3335 I-85.8201 J-40.4192
G2 X10.6159 Y4.8038 I70.1092 J33.4051
G2 X10.5073 Y5.0399 I17.5568 J8.2215
G2 X10.3342 Y5.4368 I14.7042 J6.6468
G2 X10.2054 Y5.7585 I9.5237 J4.0009
G2 X10.1597 Y5.8867 I0.6477 J0.303
G2 X10.1312 Y6.053 I1.0643 J0.2682
G2 X10.1265 Y6.1208 I1.4387 J0.1342
G2 X10.1241 Y6.207 I2.3174 J0.1066
G2 X10.1241 Y6.2586 I2.8125 J0.0248
G2 X10.1256 Y6.3624 I11.3274 J-0.1085
G3 X10.1271 Y6.499 I-8.4743 J0.1588
G3 X10.1261 Y6.5661 I-2.0428 J0.0053
G3 X10.119 Y6.6773 I-1.6521 J-0.0499
G3 X10.1068 Y6.763 I-0.9909 J-0.0971
G3 X10.0816 Y6.8631 I-0.8198 J-0.1531
G3 X10.0479 Y6.9478 I-0.6185 J-0.1971
G3 X9.9963 Y7.0356 I-0.5535 J-0.2667
G3 X9.9296 Y7.1153 I-0.5231 J-0.3695
G2 X10.0967 Y7.3761 I3.0608 J-1.7778
G2 X10.3305 Y7.6845 I4.5191 J-3.1836
G2 X10.4298 Y7.8036 I5.5231 J-4.5006
G2 X10.5572 Y7.9506 I8.5323 J-7.2675
G2 X10.6348 Y8.0378 I10.1122 J-8.9205
G2 X10.7912 Y8.2113 I40.2238 J-36.1073
G3 X10.9453 Y8.3821 I-40.631 J36.7912
G3 X11.0216 Y8.4678 I-10.15 J9.1136
G3 X11.1469 Y8.6123 I-8.4897 J7.4947
G3 X11.2445 Y8.7291 I-5.4621 J4.6603
G3 X11.7712 Y9.3123 I-8.2403 J7.9726
G3 X12.1991 Y9.8617 I-6.8848 J5.803
G3 X12.6202 Y10.5115 I-6.5621 J4.7144
G3 X12.9431 Y11.1399 I-5.8129 J3.3834
G3 X12.9937 Y11.2697 I-1.6854 J0.7326
G3 X13.0455 Y11.4349 I-2.6784 J0.93
G3 X13.072 Y11.5354 I-3.2831 J0.9197
G3 X13.1205 Y11.7381 I-13.2885 J3.2891
G2 X13.1543 Y11.8813 I18.8861 J-4.3706
G2 X13.1719 Y11.9526 I4.6988 J-1.1251
G2 X13.204 Y12.0707 I3.8918 J-0.9946
G2 X13.2329 Y12.1642 I2.465 J-0.7107
G2 X13.2794 Y12.181 I0.0893 J-0.1747
G2 X13.3148 Y12.1825 I0.022 J-0.0986
G2 X13.3448 Y12.173 I-0.012 J-0.0896
G2 X13.3747 Y12.1512 I-0.058 J-0.1108
G2 X13.3951 Y12.127 I-0.1233 J-0.1249
G2 X13.4195 Y12.0872 I-0.3147 J-0.2207
G2 X13.4321 Y12.0619 I-0.4637 J-0.2471
G2 X13.4567 Y12.0073 I-2.1441 J-0.9988
G3 X13.4783 Y11.9592 I2.411 J1.0497
G3 X13.489 Y11.937 I0.5244 J0.2409
G3 X13.5095 Y11.9015 I0.3779 J0.1936
G3 X13.526 Y11.8793 I0.1637 J0.1049
G3 X13.5193 Y12.0385 I-8.24 J-0.2658
G3 X13.513 Y12.1318 I-2.8392 J-0.1465
G3 X13.4968 Y12.272 I-2.2854 J-0.1935
G3 X13.4761 Y12.3826 I-1.4413 J-0.212
G3 X13.4393 Y12.5113 I-1.1911 J-0.2704
G3 X13.3946 Y12.6182 I-0.8641 J-0.2988
G3 X13.328 Y12.7298 I-0.7418 J-0.3673
G3 X13.2477 Y12.8253 I-0.623 J-0.4419
G3 X13.1622 Y12.9144 I-0.6273 J-0.5167
G3 X13.063 Y12.9905 I-0.5547 J-0.6202
G3 X12.9659 Y13.0457 I-0.4914 J-0.7511
G3 X12.8483 Y13.0955 I-0.5155 J-1.0543
G3 X12.7465 Y13.1279 I-0.4747 J-1.3175
G3 X12.6135 Y13.1604 I-0.6135 J-2.2202
G3 X12.5328 Y13.1764 I-0.5901 J-2.7665
G3 X12.3687 Y13.2052 I-2.0881 J-11.4066
G2 X12.1963 Y13.2356 I1.8289 J10.87
G2 X12.1116 Y13.2527 I0.4869 J2.6371
G2 X11.9723 Y13.2879 I0.4644 J2.1288
G2 X11.8661 Y13.3235 I0.3662 J1.2699
G2 X11.6778 Y13.3884 I0.2265 J0.9628
G2 X11.4669 Y13.5079 I0.6144 J1.3296
G2 X11.3876 Y13.565 I1.0783 J1.5811
G2 X11.2909 Y13.6416 I1.8437 J2.4273
G2 X11.2344 Y13.6892 I2.3445 J2.8403
G2 X11.1228 Y13.7861 I9.5967 J11.162
G3 X11.0826 Y13.8214 I-26.474 J-30.174
G3 X11.0625 Y13.8389 I-6.5524 J-7.4882
G3 X10.9327 Y13.8767 I-0.2705 J-0.6862
G3 X10.7621 Y13.8972 I-0.2269 J-1.168
G3 X10.6928 Y13.899 I-0.075 J-1.5842
G3 X10.6045 Y13.8978 I-0.0094 J-2.5759
G3 X10.5515 Y13.8957 I0.0961 J-3.1353
G3 X10.4449 Y13.8902 I0.6052 J-12.7162
G2 X10.3123 Y13.8837 I-0.5708 J10.1921
G2 X10.2469 Y13.8817 I-0.1068 J2.4849
G2 X10.1378 Y13.8828 I-0.0336 J2.0237
G2 X10.0532 Y13.8889 I0.0456 J1.2241
G2 X9.8507 Y13.9344 I0.0968 J0.9049
G2 X9.6958 Y14.0134 I0.21 J0.603
G2 X9.8415 Y14.1283 I0.6327 J-0.6527
G2 X10.0042 Y14.2091 I0.467 J-0.7361
G2 X10.1648 Y14.2529 I0.3222 J-0.865
G2 X10.349 Y14.2704 I0.1996 J-1.1224
G2 X10.6623 Y14.2389 I0.0187 J-1.3883
G2 X11.051 Y14.118 I-0.4923 J-2.2673
G3 X11.1088 Y14.2741 I-1.5727 J0.6715
G3 X11.1588 Y14.4589 I-2.158 J0.6822
G3 X11.1891 Y14.6149 I-2.6053 J0.5869
G3 X11.2165 Y14.8121 I-4.1319 J0.6754
G3 X11.1704 Y14.7886 I2.2748 J-4.5212
G3 X11.076 Y14.7396 I9.8008 J-18.9928
G2 X10.8955 Y14.6473 I-5.5221 J10.5716
G2 X10.8038 Y14.6032 I-1.3473 J2.6897
G2 X10.6466 Y14.5376 I-1.0237 J2.229
G2 X10.5214 Y14.4966 I-0.5183 J1.3724
G2 X10.3663 Y14.4643 I-0.3231 J1.1617
G2 X10.2308 Y14.4557 I-0.1236 J0.8786
G2 X10.079 Y14.4721 I0.0109 J0.8112
G2 X9.9337 Y14.5165 I0.161 J0.7864
G3 X9.9135 Y14.5257 I-1.2556 J-2.7395
G3 X9.8707 Y14.5448 I-5.4714 J-12.174
G2 X9.7623 Y14.5943 I2.4965 J5.6074
G2 X9.7072 Y14.6215 I0.6931 J1.4789
G2 X9.6168 Y14.6726 I0.609 J1.1815
G2 X9.5522 Y14.7173 I0.4009 J0.6481
G2 X9.4817 Y14.7813 I0.3655 J0.4737
G2 X9.4344 Y14.8427 I0.2897 J0.2722
G2 X9.3977 Y14.9222 I0.2949 J0.1844
G2 X9.3821 Y15.0081 I0.3295 J0.1043
G2 X9.4496 Y14.994 I-0.7741 J-3.9008
G2 X9.5881 Y14.9634 I-3.5589 J-16.4353
G3 X9.7724 Y14.9233 I2.9118 J12.9193
G3 X9.8651 Y14.9051 I0.6838 J3.2489
G3 X10.021 Y14.8816 I0.4848 J2.6793
G3 X10.1438 Y14.8712 I0.2006 J1.6494
G3 X10.2919 Y14.8722 I0.0648 J1.3825
G3 X10.4187 Y14.8878 I-0.0619 J1.0286
G3 X10.5573 Y14.9248 I-0.1713 J0.9196
G3 X10.6838 Y14.9809 I-0.2885 J0.8216
G3 X11.0716 Y15.215 I-3.2359 J5.7985
G3 X11.3702 Y15.4279 I-2.3755 J3.6477
G3 X11.6985 Y15.7163 I-2.2627 J2.9065
G3 X11.9509 Y16.0027 I-1.9764 J1.997
G2 X12.0966 Y16.1757 I2.3479 J-1.8283
G2 X12.292 Y16.3779 I3.4028 J-3.0923
G2 X12.4148 Y16.4939 I3.8596 J-3.9645
G2 X12.6664 Y16.7208 I15.0205 J-16.4023
G3 X12.917 Y16.9468 I-14.8332 J16.7014
G3 X13.0394 Y17.0623 I-3.7554 J4.1019
G2 X13.2002 Y17.2042 I1.712 J-1.7781
G2 X13.4127 Y17.3639 I2.3816 J-2.9479
G2 X13.5453 Y17.453 I2.61 J-3.7391
G2 X13.8158 Y17.6247 I9.9638 J-15.3966
G3 X14.0613 Y17.7801 I-10.6987 J17.1831
G3 X14.1821 Y17.8602 I-2.7249 J4.2395
G3 X14.3772 Y18.0021 I-2.3653 J3.4572
G3 X14.5264 Y18.1261 I-1.654 J2.1416
G2 X14.5542 Y18.1513 I6.1167 J-6.7211
G2 X14.6104 Y18.2019 I24.6075 J-27.2647
G3 X14.7121 Y18.2939 I-13.6937 J15.2353
G3 X14.7625 Y18.3405 I-3.4583 J3.7963
G3 X14.845 Y18.4198 I-2.9146 J3.1147
G3 X14.9088 Y18.4849 I-1.8968 J1.921
G3 X15.0557 Y18.6582 I-1.5098 J1.4292
G3 X15.1554 Y18.8103 I-1.0612 J0.8045
G3 X15.1986 Y18.9119 I-0.3716 J0.2178
G3 X15.2147 Y19.0216 I-0.4192 J0.1175
G3 X15.2059 Y19.1223 I-0.4852 J0.0087
G3 X15.1736 Y19.2345 I-0.6351 J-0.1227
G3 X15.0742 Y19.4171 I-0.7652 J-0.2981
G3 X14.915 Y19.5925 I-0.8641 J-0.6239
G3 X14.6246 Y19.79 I-1.7653 J-2.284
G3 X14.3015 Y19.9572 I-1.5818 J-2.6613
G3 X13.9693 Y20.0833 I-1.2938 J-2.9072
G3 X13.6207 Y20.173 I-0.987 J-3.1136
G2 X13.5526 Y20.1867 I1.0926 J5.6115
G2 X13.4147 Y20.2157 I4.7685 J22.9966
G3 X13.228 Y20.2545 I-3.7041 J-17.3399
G3 X13.1343 Y20.2724 I-0.8797 J-4.3463
G3 X12.9771 Y20.2972 I-0.6493 J-3.6052
G3 X12.8521 Y20.3107 I-0.3072 J-2.2662
G3 X12.5405 Y20.3076 I-0.1385 J-1.7332
G3 X12.2902 Y20.2545 I0.1167 J-1.1668
G3 X12.3339 Y20.2417 I0.1471 J0.423
G3 X12.427 Y20.222 I0.4527 J1.9068
G2 X12.4758 Y20.2126 I-0.7091 J-3.7996
G2 X12.4998 Y20.2074 I-0.1865 J-0.9326
G2 X12.5396 Y20.1973 I-0.1723 J-0.7588
G2 X12.5702 Y20.1875 I-0.1298 J-0.4583
G2 X12.6411 Y20.1529 I-0.1203 J-0.3365
G2 X12.692 Y20.1104 I-0.1351 J-0.2134
G2 X12.6083 Y20.0176 I-0.3309 J0.2143
G2 X12.4854 Y19.9441 I-0.3247 J0.4032
G2 X12.4303 Y19.9235 I-0.2727 J0.6442
G2 X12.3577 Y19.9023 I-0.3608 J1.1021
G2 X12.3135 Y19.8917 I-0.3542 J1.3811
G2 X12.224 Y19.8725 I-1.2607 J5.659
G3 X12.1114 Y19.8478 I0.8996 J-4.3613
G3 X12.058 Y19.8338 I0.2329 J-0.998
G3 X11.9527 Y19.8015 I0.056 J-0.3711
G3 X11.8433 Y19.7316 I0.2242 J-0.4711
G3 X11.8039 Y19.6962 I0.45 J-0.5413
G3 X11.7563 Y19.6474 I0.8082 J-0.8352
G3 X11.729 Y19.6169 I1.0499 J-0.9648
G3 X11.6754 Y19.5542 I4.3791 J-3.7983
G2 X11.5905 Y19.457 I-2.735 J2.3049
G2 X11.5475 Y19.413 I-0.6013 J0.545
G3 X11.524 Y19.4735 I-7.0342 J-2.7
G3 X11.4994 Y19.5351 I-7.2946 J-2.8723
G3 X11.4748 Y19.5954 I-7.3692 J-2.9739
G3 X11.4495 Y19.6559 I-7.4465 J-3.0763
G3 X11.4191 Y19.6271 I0.3141 J-0.3618
G3 X11.3591 Y19.5624 I1.5331 J-1.4823
G2 X11.3182 Y19.5173 I-2.3712 J2.1097
G2 X11.2975 Y19.4958 I-0.561 J0.5188
G2 X11.261 Y19.4621 I-0.4327 J0.4327
G2 X11.2307 Y19.4391 I-0.2319 J0.2729
G2 X11.1478 Y19.4018 I-0.1468 J0.2155
G2 X11.0625 Y19.3966 I-0.0565 J0.2234
G2 X10.9493 Y19.4019 I-0.0365 J0.4253
G2 X10.8493 Y19.4355 I0.0665 J0.3642
G2 X10.7712 Y19.4869 I0.1829 J0.363
G2 X10.6911 Y19.5679 I0.3877 J0.463
G2 X10.6361 Y19.6444 I0.6037 J0.4929
G2 X10.5736 Y19.7538 I1.1788 J0.7452
G2 X10.541 Y19.8209 I1.5404 J0.789
G2 X10.4821 Y19.9532 I5.927 J2.7201
G3 X10.4638 Y19.9955 I-16.051 J-6.939
G3 X10.4549 Y20.0157 I-3.6723 J-1.5991
G3 X10.4445 Y19.9749 I0.3535 J-0.1118
G3 X10.4298 Y19.887 I1.6335 J-0.3186
G2 X10.4227 Y19.8388 I-3.1257 J0.4374
G2 X10.4186 Y19.8151 I-0.7616 J0.1186
G2 X10.4099 Y19.776 I-0.6148 J0.1155
G2 X10.401 Y19.7462 I-0.3645 J0.093
G2 X10.3669 Y19.6788 I-0.263 J0.0908
G2 X10.3215 Y19.6312 I-0.1732 J0.1197
G2 X10.2204 Y19.7761 I0.5891 J0.5188
G2 X10.1363 Y19.9732 I1.0151 J0.5499
G2 X10.0978 Y20.1176 I1.409 J0.4522
G2 X10.0547 Y20.3566 I3.8196 J0.8121
G2 X10.0283 Y20.8191 I5.1488 J0.5258
G2 X10.044 Y21.2308 I4.0945 J0.0501
G2 X10.1126 Y21.6821 I3.6559 J-0.3241
G2 X10.2285 Y22.084 I3.0107 J-0.6508
G3 X10.2626 Y22.2064 I-0.4165 J0.1822
G3 X10.2643 Y22.3538 I-0.6067 J0.0806
G3 X10.2555 Y22.4134 I-0.8092 J-0.0889
G3 X10.2393 Y22.4887 I-1.309 J-0.2429
G3 X10.2276 Y22.5335 I-1.5824 J-0.3895
G3 X10.2021 Y22.6232 I-6.3953 J-1.7681
G2 X10.1818 Y22.6939 I8.033 J2.3431
G2 X10.1722 Y22.7289 I1.9696 J0.5558
G2 X10.1579 Y22.7877 I1.6189 J0.4259
G2 X10.1486 Y22.8341 I0.9974 J0.2242
G2 X10.3495 Y22.7226 I-0.8061 J-1.6898
G2 X10.5811 Y22.5582 I-1.539 J-2.4124
G2 X10.6696 Y22.4862 I-2.2863 J-2.9026
G2 X10.7783 Y22.3927 I-3.7506 J-4.4705
G2 X10.8425 Y22.3354 I-4.6537 J-5.2779
G2 X10.9703 Y22.2192 I-18.9862 J-21.0093
G3 X11.1844 Y22.0266 I11.4775 J12.5458
G3 X11.2935 Y21.9334 I2.7956 J3.1617
G3 X11.4828 Y21.7878 I2.2246 J2.6953
G3 X11.643 Y21.683 I1.3078 J1.8255
G3 X11.4494 Y22.2291 I-3.7144 J-1.0096
G3 X11.1432 Y22.8141 I-4.5713 J-2.0199
G3 X10.8278 Y23.2791 I-5.0141 J-3.0622
G3 X10.3989 Y23.8056 I-6.8652 J-5.1535
G3 X10.3321 Y23.8672 I-1.3837 J-1.4346
G3 X10.2793 Y23.9109 I-0.7495 J-0.8515
G3 X10.2019 Y23.9649 I-0.5524 J-0.7098
G3 X10.1381 Y23.9987 I-0.2783 J-0.4474
G3 X10.0561 Y24.025 I-0.1605 J-0.3601
G3 X9.9886 Y24.0291 I-0.0486 J-0.2391
G3 X9.9146 Y24.0097 I0.0168 J-0.2151
G3 X9.844 Y23.9621 I0.1129 J-0.2435
G2 X9.6978 Y23.8614 I-0.5191 J0.5974
G2 X9.5277 Y23.7931 I-0.3982 J0.7452
G2 X9.3594 Y23.7623 I-0.2505 J0.8935
G2 X9.1688 Y23.7612 I-0.102 J1.147
G2 X9.2656 Y23.7102 I-0.3457 J-0.7746
G2 X9.3709 Y23.6376 I-0.6058 J-0.9907
G2 X9.4481 Y23.5733 I-0.8669 J-1.119
G2 X9.5484 Y23.4788 I-1.7786 J-1.9873
G2 X9.4284 Y23.4378 I-0.5814 J1.5054
G2 X9.2758 Y23.3974 I-0.7154 J2.3974
G2 X9.1831 Y23.3775 I-0.6782 J2.9375
G2 X8.9962 Y23.3421 I-2.3552 J11.8979
G3 X8.8822 Y23.321 I3.5591 J-19.5874
G3 X8.8254 Y23.31 I0.915 J-4.8744
G3 X8.7311 Y23.29 I0.8075 J-4.0409
G3 X8.6563 Y23.2721 I0.5738 J-2.5585
G3 X8.4732 Y23.2161 I0.5048 J-1.9773
G3 X8.3298 Y23.1552 I0.4548 J-1.2702
G3 X8.2124 Y23.1027 I0.5751 J-1.4436
G3 X8.0714 Y23.0266 I1.075 J-2.1594
G3 X7.9891 Y22.9767 I1.4665 J-2.5125
G3 X7.8265 Y22.8725 I6.2308 J-9.9067
G2 X7.723 Y22.8055 I-9.9893 J15.316
G2 X7.6711 Y22.7726 I-2.4562 J3.822
G2 X7.5835 Y22.7196 I-1.9939 J3.1969
G2 X7.5124 Y22.6796 I-1.2081 J2.0597
G2 X7.3292 Y22.5929 I-0.8822 J1.6291
G2 X7.1722 Y22.541 I-0.4651 J1.1418
G2 X7.25 Y22.6873 I0.7763 J-0.3191
G2 X7.3727 Y22.8419 I0.9898 J-0.6596
G2 X7.4289 Y22.8987 I1.1238 J-1.0551
G2 X7.503 Y22.967 I1.7004 J-1.7709
G2 X7.5487 Y23.0066 I1.9705 J-2.2285
G2 X7.6419 Y23.0849 I7.7912 J-9.1811
G3 X7.7662 Y23.1901 I-5.7747 J6.9461
G3 X7.8265 Y23.244 I-1.4585 J1.6914
G3 X7.9218 Y23.3392 I-1.2527 J1.3505
G3 X7.9914 Y23.4211 I-0.8587 J0.7997
G3 X8.0223 Y23.4583 I-1.3114 J1.1193
G3 X8.0836 Y23.5355 I-5.5714 J4.4916
G2 X8.1363 Y23.6021 I6.6691 J-5.2267
G2 X8.1631 Y23.6349 I1.6503 J-1.3203
G2 X8.2095 Y23.6883 I1.342 J-1.1185
G2 X8.2481 Y23.7289 I0.8116 J-0.7342
G2 X8.3542 Y23.8184 I0.5909 J-0.5922
G2 X8.4533 Y23.8748 I0.3274 J-0.4604
G2 X8.5889 Y23.9314 I0.4959 J-0.9965
G2 X8.7622 Y23.9805 I0.542 J-1.5839
G2 X8.8687 Y24.0016 I0.4456 J-1.9739
G2 X9.0848 Y24.0353 I1.3756 J-8.0932
G3 X9.2527 Y24.0607 I-1.4982 J10.5005
G3 X9.3361 Y24.0753 I-0.4133 J2.5987
G3 X9.4734 Y24.1063 I-0.4113 J2.1401
G3 X9.5813 Y24.1391 I-0.3521 J1.3533
G3 X9.6013 Y24.1681 I-2.284 J1.5935
G3 X9.663 Y24.2594 I-22.6065 J15.3508
G2 X9.6741 Y24.2758 I66.5791 J-44.8186
G2 X9.6785 Y24.2824 I10.5955 J-7.1363
G3 X9.6457 Y24.267 I0.6262 J-1.379
G3 X9.5797 Y24.2346 I2.7147 J-5.6175
G2 X9.5152 Y24.203 I-2.8901 J5.8048
G2 X9.4828 Y24.1877 I-0.702 J1.45
G2 X9.428 Y24.1642 I-0.5521 J1.208
G2 X9.3838 Y24.1478 I-0.31 J0.7679
G2 X9.2706 Y24.1207 I-0.2027 J0.5981
G2 X9.1738 Y24.1177 I-0.062 J0.4329
G0 Z0.15
G0 X10.5858 Y21.9942
G1 Z-0.5 F30
G3 X10.5129 Y21.7149 I3.6747 J-1.1084 F60
G3 X10.4656 Y21.4508 I3.2353 J-0.7157
G3 X10.4398 Y21.1639 I3.0443 J-0.4189
G3 X10.4417 Y20.8951 I2.6729 J-0.1148
G2 X10.601 Y20.8453 I-2.5881 J-8.5551
G2 X10.9184 Y20.7411 I-11.0154 J-34.1016
G3 X11.149 Y20.6648 I15.5946 J46.7824
G3 X11.2645 Y20.6276 I3.8351 J11.6967
G3 X11.4578 Y20.5684 I3.0957 J9.7655
G3 X11.6134 Y20.5246 I1.854 J6.2761
G3 X11.5467 Y20.8181 I-9.3422 J-1.9668
G3 X11.4992 Y20.9929 I-3.3621 J-0.8193
G3 X11.411 Y21.2431 I-2.666 J-0.7996
G3 X11.3178 Y21.4385 I-1.7161 J-0.6989
G3 X11.1799 Y21.5937 I-0.9703 J-0.7229
G3 X10.9833 Y21.7556 I-1.2534 J-1.3221
G3 X10.8329 Y21.8541 I-1.3371 J-1.8777
G3 X10.5858 Y21.9942 I-2.9617 J-4.9324
G0 Z0.15
G0 X10.7875 Y20.3871
G1 Z-0.5 F30
G3 X10.7701 Y20.217 I0.7419 J-0.162 F60
G3 X10.7912 Y20.0372 I0.8522 J0.009
G3 X10.8445 Y19.8745 I0.9012 J0.2048
G3 X10.9308 Y19.7152 I0.9503 J0.4118
G3 X10.9924 Y19.7116 I0.0595 J0.4956
G3 X11.0529 Y19.7157 I-0.002 J0.4821
G3 X11.1121 Y19.7272 I-0.063 J0.4815
G3 X11.1712 Y19.7465 I-0.1298 J0.4993
G3 X11.2023 Y19.854 I-0.4693 J0.1937
G3 X11.2097 Y19.9699 I-0.5378 J0.0926
G3 X11.1927 Y20.0831 I-0.5398 J-0.023
G3 X11.1541 Y20.1832 I-0.4597 J-0.1197
G3 X11.0901 Y20.2742 I-0.3754 J-0.196
G3 X11.0112 Y20.3383 I-0.26 J-0.2397
G3 X10.9088 Y20.3787 I-0.1755 J-0.2943
G3 X10.7875 Y20.3871 I-0.0889 J-0.4074
G0 Z0.15
G0 X4.8116 Y10.4623
G1 Z-0.5 F30
G3 X4.5725 Y10.3326 I0.7582 J-1.683 F60
G3 X4.3442 Y10.1622 I1.093 J-1.7022
G3 X4.1549 Y9.9778 I1.4259 J-1.6531
G3 X3.9725 Y9.7534 I1.935 J-1.7596
G3 X3.7097 Y9.3179 I2.4436 J-1.7716
G3 X3.4811 Y8.7579 I3.8269 J-1.8893
G3 X3.4109 Y8.5093 I1.6364 J-0.5961
G3 X3.3663 Y8.1941 I2.5916 J-0.5276
G3 X3.3584 Y8.0663 I3.4152 J-0.2751
G3 X3.3538 Y7.9054 I5.4157 J-0.2332
G3 X3.3533 Y7.8089 I6.5369 J-0.0872
G3 X3.3542 Y7.6154 I26.2281 J0.0376
G2 X3.355 Y7.379 I-21.2855 J-0.1875
G2 X3.3534 Y7.2619 I-5.228 J0.012
G3 X3.3603 Y6.8875 I3.2487 J-0.1279
G3 X3.412 Y6.4916 I3.6846 J0.2802
G3 X3.4945 Y6.1376 I3.9794 J0.7405
G3 X3.6201 Y5.7507 I4.8807 J1.3708
G3 X3.7548 Y5.4184 I5.4109 J2.0002
G3 X3.9336 Y5.0415 I7.1428 J3.1576
G3 X4.0941 Y4.7393 I8.2269 J4.1755
G3 X4.3085 Y4.3662 I12.7533 J7.0796
G3 X4.325 Y4.328 I0.4079 J0.1532
G3 X4.3688 Y4.2429 I2.0815 J1.0175
G2 X4.4031 Y4.1778 I-2.9851 J-1.6152
G2 X4.4189 Y4.1453 I-0.7282 J-0.3738
G2 X4.4415 Y4.0893 I-0.5804 J-0.2663
G2 X4.4532 Y4.0468 I-0.3218 J-0.1122
G2 X4.4588 Y3.9944 I-0.2571 J-0.0537
G2 X4.4538 Y3.9508 I-0.1833 J-0.001
G2 X4.4357 Y3.905 I-0.1698 J0.0407
G2 X4.4024 Y3.8606 I-0.1924 J0.1096
G2 X3.9988 Y4.2019 I1.8066 J2.5462
G2 X3.6339 Y4.631 I2.5102 J2.5042
G2 X3.3513 Y5.0879 I3.0563 J2.2058
G2 X3.1278 Y5.5971 I3.5772 J1.8738
G2 X3.0958 Y5.687 I2.67 J1.0012
G2 X3.0363 Y5.8685 I10.8354 J3.6547
G3 X2.9807 Y6.0387 I-11.6104 J-3.7012
G3 X2.951 Y6.1229 I-2.8748 J-0.9632
G3 X2.8956 Y6.2608 I-2.3652 J-0.8707
G3 X2.8438 Y6.3686 I-1.4949 J-0.6528
G3 X2.5877 Y6.4088 I-0.3684 J-1.5082
G3 X2.3122 Y6.4071 I-0.1268 J-1.749
G3 X2.0703 Y6.3713 I0.1672 J-1.9653
G3 X1.7936 Y6.2971 I0.5615 J-2.648
G3 X1.5699 Y6.2151 I1.0084 J-3.0965
G3 X1.2941 Y6.093 I1.9757 J-4.834
G3 X1.1259 Y6.0096 I2.7491 J-5.7531
G3 X0.82 Y5.849 I9.882 J-19.2054
G3 X0.829 Y5.8506 I-4.3924 J24.723
G3 X0.8471 Y5.8538 I-17.6106 J98.9127
G2 X1.0005 Y5.8801 I2.0819 J-11.6811
G2 X1.0774 Y5.8918 I0.4825 J-2.9289
G2 X1.2063 Y5.9061 I0.3383 J-2.4533
G2 X1.3107 Y5.9116 I0.1363 J-1.606
G2 X1.2766 Y5.8367 I-1.3086 J0.5504
G2 X1.2276 Y5.7423 I-2.1249 J1.0426
G2 X1.1964 Y5.6867 I-2.5566 J1.4002
G2 X1.131 Y5.5747 I-10.4134 J6.0032
G3 X1.0493 Y5.4337 I8.3112 J-4.9115
G3 X1.0107 Y5.3631 I2.0463 J-1.1631
G3 X0.9528 Y5.2424 I1.6898 J-0.8855
G3 X0.9155 Y5.1454 I1.0513 J-0.46
G3 X0.8839 Y5.0252 I0.9086 J-0.303
G3 X0.871 Y4.9168 I0.7266 J-0.1413
G3 X0.8763 Y4.7946 I0.6984 J-0.031
G3 X0.9031 Y4.6724 I0.7259 J0.0954
G3 X1.0271 Y4.5083 I1.1438 J0.7346
G3 X1.1835 Y4.3543 I1.1605 J1.0228
G3 X1.3385 Y4.2364 I1.1257 J1.3193
G3 X1.5328 Y4.1184 I1.3216 J1.9569
G3 X1.7014 Y4.0339 I1.3515 J2.4874
G3 X1.9217 Y3.9395 I1.9122 J4.1572
G3 X2.0553 Y3.8883 I2.0431 J5.1344
G3 X2.3207 Y3.7926 I7.4284 J20.1728
G2 X2.3555 Y3.7803 I-52.2634 J-147.8867
G2 X2.3728 Y3.7742 I-12.9372 J-36.5803
G2 X2.4868 Y3.7375 I-1.6157 J-5.2242
G2 X2.7148 Y3.6601 I-6.9949 J-20.9781
G3 X2.9994 Y3.5645 I5.8192 J16.839
G3 X3.1424 Y3.5204 I1.3755 J4.2087
G3 X3.3839 Y3.4592 I1.0211 J3.5234
G3 X3.5807 Y3.4251 I0.5013 J2.3049
G3 X3.6623 Y3.4344 I-0.046 J0.7636
G3 X3.7652 Y3.4563 I-0.2097 J1.2399
G3 X3.8262 Y3.4733 I-0.3862 J1.5043
G3 X3.949 Y3.5115 I-1.845 J6.1369
G2 X4.0575 Y3.5456 I2.2244 J-6.8938
G2 X4.1114 Y3.5611 I0.5147 J-1.6852
G2 X4.2023 Y3.5826 I0.3745 J-1.3824
G2 X4.2741 Y3.594 I0.1723 J-0.8525
G2 X4.4508 Y3.5905 I0.0756 J-0.6503
G2 X4.6016 Y3.5428 I-0.081 J-0.5181
G3 X4.5936 Y3.4059 I4.1565 J-0.3117
G3 X4.5912 Y3.2953 I2.716 J-0.1141
G3 X4.5948 Y3.1634 I2.3418 J-0.0029
G3 X4.6049 Y3.0471 I1.8283 J0.1009
G2 X4.521 Y3.0375 I-0.2231 J1.5662
G2 X4.3501 Y3.0246 I-0.5737 J6.4941
G3 X4.245 Y3.0176 I0.6609 J-10.6786
G3 X4.1927 Y3.0133 I0.19 J-2.6462
G3 X4.1058 Y3.0036 I0.2001 J-2.1826
G3 X4.0374 Y2.9928 I0.1802 J-1.3644
G3 X3.8719 Y2.9483 I0.1913 J-1.0418
G3 X3.7429 Y2.8874 I0.247 J-0.6901
G3 X3.5502 Y2.7865 I1.1163 J-2.3657
G3 X3.3824 Y2.6791 I1.0989 J-1.9013
G3 X3.2049 Y2.5371 I1.1004 J-1.5584
G3 X3.0707 Y2.3978 I0.9247 J-1.0248
G3 X2.9479 Y2.2192 I0.8858 J-0.7408
G3 X2.8746 Y2.046 I0.759 J-0.4231
G3 X2.8411 Y1.841 I0.7689 J-0.2309
G3 X2.8611 Y1.626 I0.8673 J-0.028
G2 X2.8964 Y1.6255 I-0.9359 J-69.092
G2 X2.9674 Y1.6245 I-3.9253 J-279.2456
G3 X3.22 Y1.6213 I1.1537 J80.6181
G3 X3.3477 Y1.6203 I0.2305 J20.6221
G3 X3.5613 Y1.6205 I0.0862 J17.2982
G3 X3.7327 Y1.6231 I-0.0821 J11.1446
G3 X4.1631 Y1.6436 I-0.1972 J8.6709
G3 X4.501 Y1.6789 I-0.3899 J5.3735
G3 X4.9037 Y1.7525 I-0.6089 J4.466
G3 X5.2416 Y1.8494 I-0.7459 J3.2387
G3 X5.6065 Y2.0033 I-0.9668 J2.8024
G3 X5.924 Y2.1925 I-1.1599 J2.3069
G1 X5.9141 Y2.288
G3 X5.8387 Y2.3627 I-1.2074 J-1.1439
G3 X5.7371 Y2.4524 I-1.8455 J-1.9866
G3 X5.6741 Y2.504 I-2.1323 J-2.5386
G3 X5.545 Y2.6059 I-8.4525 J-10.5803
G2 X5.4174 Y2.7065 I8.4519 J10.8472
G2 X5.355 Y2.7576 I2.1113 J2.6445
G2 X5.2542 Y2.8463 I1.7828 J2.1271
G2 X5.1789 Y2.9202 I1.1621 J1.2577
G2 X5.0192 Y3.1249 I0.9365 J0.8959
G2 X4.926 Y3.3213 I0.7687 J0.4847
G2 X5.1219 Y3.2409 I-1.1269 J-3.0237
G2 X5.3615 Y3.1256 I-2.0852 J-4.6394
G2 X5.5026 Y3.0508 I-2.8109 J-5.4704
G2 X5.7829 Y2.895 I-11.9113 J-21.7711
G3 X5.9801 Y2.7847 I17.3154 J30.6994
G3 X6.0789 Y2.7306 I4.2571 J7.662
G3 X6.2453 Y2.6437 I3.4488 J6.3996
G3 X6.3797 Y2.5784 I2.0784 J4.1072
G3 X6.7244 Y2.4392 I1.5052 J3.2306
G3 X7.0149 Y2.3596 I0.7617 J2.2118
G3 X7.144 Y2.4113 I-0.2302 J0.7627
G3 X7.2622 Y2.4846 I-0.3592 J0.7108
G3 X7.3559 Y2.5659 I-0.5159 J0.6889
G3 X7.4503 Y2.6734 I-0.8103 J0.8076
G3 X7.5192 Y2.7709 I-1.0916 J0.8448
G3 X7.5983 Y2.9031 I-1.9344 J1.2456
G3 X7.6417 Y2.9847 I-2.4781 J1.3703
G3 X7.725 Y3.1511 I-10.223 J5.2249
G2 X7.8223 Y3.3437 I8.5027 J-4.1733
G2 X7.872 Y3.4341 I1.9186 J-0.9966
G3 X7.9105 Y3.7869 I-2.2208 J0.4209
G3 X7.8951 Y4.1988 I-3.0471 J0.0919
G3 X7.8429 Y4.5388 I-3.6297 J-0.3831
G3 X7.7428 Y4.9524 I-5.4763 J-1.1069
G2 X7.4947 Y5.9037 I39.327 J10.7617
G2 X7.316 Y6.6737 I25.5829 J6.3418
G2 X7.1357 Y7.6011 I22.0875 J4.7772
G2 X7.0141 Y8.4204 I17.1109 J2.9582
G2 X6.9614 Y8.6978 I2.7916 J0.6735
G2 X6.9271 Y9.0449 I4.3364 J0.6037
G2 X6.9207 Y9.1846 I5.6078 J0.3293
G2 X6.9165 Y9.3597 I8.8061 J0.2975
G2 X6.9156 Y9.4648 I10.5937 J0.1471
G2 X6.9153 Y9.6753 I42.4795 J0.1684
G3 X6.9148 Y9.9012 I-39.5943 J0.0392
G3 X6.9137 Y10.014 I-9.8789 J-0.0466
G3 X6.9085 Y10.202 I-8.2159 J-0.1326
G3 X6.9005 Y10.352 I-5.2388 J-0.2045
G3 X6.3975 Y10.5787 I-1.2268 J-2.0502
G3 X5.8665 Y10.6807 I-0.6955 J-2.1874
G3 X5.2987 Y10.643 I-0.1483 J-2.0641
G3 X4.8116 Y10.4623 I0.3498 J-1.6894
G0 Z0.15
G0 X10.8196 Y7.5912
G1 Z-0.5 F30
G3 X10.7735 Y7.5276 I5.1618 J-3.7964 F60
G3 X10.7496 Y7.4935 I1.4593 J-1.046
G3 X10.713 Y7.4371 I1.2198 J-0.8322
G3 X10.6862 Y7.3908 I0.7943 J-0.4904
G3 X10.6343 Y7.2686 I0.6218 J-0.3363
G3 X10.6138 Y7.1631 I0.4415 J-0.1403
G3 X10.5948 Y6.7105 I6.4764 J-0.499
G3 X10.608 Y6.3559 I3.9866 J-0.0285
G3 X10.6714 Y5.928 I3.3078 J0.2715
G3 X10.7777 Y5.5691 I2.4303 J0.5239
G3 X10.932 Y5.1772 I8.6817 J3.1936
G3 X11.1446 Y4.6964 I13.2788 J5.5833
G3 X11.28 Y4.4115 I15.6976 J7.2852
G3 X11.5589 Y3.8448 I62.3562 J30.3332
G2 X11.7866 Y3.3838 I-76.2574 J-37.9582
G2 X11.8982 Y3.1525 I-19.0905 J-9.3592
G2 X11.9214 Y3.1092 I-4.3879 J-2.375
G2 X11.9682 Y3.0203 I-18.4464 J-9.7507
G3 X12.05 Y2.8663 I11.1892 J5.8458
G3 X12.0927 Y2.7897 I2.8055 J1.5155
G3 X12.1693 Y2.6649 I2.2726 J1.3095
G3 X12.2355 Y2.5711 I1.3456 J0.879
G3 X12.3245 Y2.4658 I1.0661 J0.8105
G3 X12.4107 Y2.3842 I0.7238 J0.6784
G3 X12.5191 Y2.3063 I0.575 J0.6855
G3 X12.6327 Y2.2485 I0.4256 J0.6962
G3 X12.8339 Y2.176 I0.9125 J2.2169
G3 X13.0588 Y2.1161 I0.8411 J2.7075
G3 X13.2622 Y2.0777 I0.6873 J3.0864
G3 X13.4986 Y2.048 I0.6404 J4.1355
G3 X13.6962 Y2.0328 I0.4757 J4.9046
G3 X13.9454 Y2.0228 I0.4401 J7.7859
G3 X14.0948 Y2.0203 I0.2298 J9.3839
G3 X14.3925 Y2.0189 I0.3196 J37.2835
G2 X14.478 Y2.0188 I-0.0749 J-127.7129
G2 X14.5206 Y2.0188 I-0.0398 J-31.69
G2 X14.5705 Y2.0196 I0.0954 J-4.2171
G2 X14.6717 Y2.0204 I0.1878 J-17.3981
G3 X14.8138 Y2.0219 I-0.0633 J12.7344
G3 X14.885 Y2.0238 I-0.0515 J3.1912
G3 X15.0035 Y2.0311 I-0.1013 J2.6337
G3 X15.0967 Y2.0415 I-0.1369 J1.6359
G3 X15.3226 Y2.0954 I-0.1742 J1.2309
G3 X15.4947 Y2.1768 I-0.2689 J0.791
G3 X15.4706 Y2.2439 I-0.2092 J-0.0371
G3 X15.4203 Y2.309 I-0.2474 J-0.1392
G3 X15.395 Y2.3314 I-0.2701 J-0.28
G3 X15.3601 Y2.3578 I-0.4092 J-0.5056
G3 X15.3384 Y2.3725 I-0.4609 J-0.6551
G3 X15.294 Y2.4011 I-1.778 J-2.7115
G2 X15.2468 Y2.4316 I1.552 J2.453
G2 X15.2246 Y2.4469 I0.3662 J0.5547
G3 X14.8854 Y2.6229 I-2.2699 J-3.9587
G3 X14.5629 Y2.7559 I-1.609 J-3.4457
G3 X14.1973 Y2.8649 I-1.1674 J-3.2473
G3 X13.8537 Y2.9253 I-0.6701 J-2.8055
G2 X13.6517 Y2.9307 I0.8089 J33.9731
G2 X13.542 Y2.9346 I0.2982 J10.0191
G2 X13.3695 Y2.9434 I0.3347 J8.2183
G2 X13.2307 Y2.9538 I0.329 J5.3243
G2 X12.8886 Y2.9982 I0.3656 J4.154
G2 X12.617 Y3.0595 I0.4607 J2.6748
G2 X12.4822 Y3.3672 I2.2331 J1.1615
G2 X12.362 Y3.7667 I3.6517 J1.3166
G2 X12.3252 Y3.93 I4.8828 J1.1872
G2 X12.2851 Y4.1364 I7.763 J1.6158
G2 X12.2635 Y4.2606 I9.3947 J1.6968
G2 X12.2228 Y4.5094 I37.6423 J6.2867
G3 X12.1859 Y4.7357 I-40.9908 J-6.5679
G3 X12.1667 Y4.8478 I-10.0892 J-1.6738
G2 X12.1282 Y5.0988 I3.6431 J0.6872
G2 X12.1018 Y5.395 I5.0499 J0.5984
G2 X12.0924 Y5.6282 I6.1101 J0.3637
G2 X12.0901 Y5.9454 I11.3004 J0.2409
G3 X12.0909 Y6.1837 I-25.8421 J0.2049
G3 X12.0892 Y6.661 I-103.5664 J-0.1341
G2 X12.0874 Y7.0613 I123.4971 J0.7289
G2 X12.0876 Y7.2614 I30.8433 J0.0821
G2 X12.091 Y7.5948 I25.6764 J-0.0982
G2 X12.0976 Y7.8612 I16.3934 J-0.2756
G2 X12.1369 Y8.5254 I12.7782 J-0.4226
G2 X12.1996 Y9.056 I8.2129 J-0.7007
G2 X12.0884 Y8.9442 I-13.0996 J12.9189
G2 X11.8644 Y8.7219 I-52.0728 J52.2422
G3 X11.6819 Y8.541 I63.7763 J-64.5338
G3 X11.5911 Y8.4503 I15.9828 J-16.0813
G3 X11.441 Y8.2977 I13.3857 J-13.3165
G3 X11.3226 Y8.1742 I8.649 J-8.4114
G3 X11.0361 Y7.857 I6.8396 J-6.4655
G3 X10.8196 Y7.5912 I4.5838 J-3.9549
G0 Z0.15
G0 X12.5783 Y6.9951
G1 Z-0.5 F30
G3 X12.5723 Y6.7086 I11.4744 J-0.3849 F60
G3 X12.5728 Y6.3503 I17.9547 J-0.154
G3 X12.5763 Y6.1353 I21.5626 J0.2455
G3 X12.5866 Y5.7053 I86.2675 J1.8426
G2 X12.591 Y5.5338 I-216.0071 J-5.691
G2 X12.5932 Y5.448 I-53.9581 J-1.3787
G3 X12.7206 Y5.591 I-0.8959 J0.9267
G3 X12.8541 Y5.7887 I-1.5875 J1.2158
G3 X12.9012 Y5.8719 I-2.236 J1.3228
G3 X12.957 Y5.9784 I-3.6069 J1.9582
G3 X12.9891 Y6.0429 I-4.4077 J2.2284
G3 X13.0516 Y6.1723 I-17.6694 J8.6118
G2 X13.0693 Y6.2093 I61.366 J-29.3555
G2 X13.0781 Y6.2278 I15.2476 J-7.3053
G3 X13.1368 Y6.37 I-0.9022 J0.4552
G3 X13.1709 Y6.5127 I-0.8746 J0.2849
G3 X13.181 Y6.6664 I-0.8495 J0.1329
G3 X13.1637 Y6.8107 I-0.7655 J-0.0185
G3 X13.109 Y6.8681 I-0.3178 J-0.2487
G3 X13.0425 Y6.9149 I-0.2762 J-0.3213
G3 X12.9769 Y6.9458 I-0.2323 J-0.4078
G3 X12.896 Y6.9705 I-0.226 J-0.5948
G3 X12.8256 Y6.9836 I-0.1745 J-0.7449
G3 X12.7371 Y6.9924 I-0.1605 J-1.169
G3 X12.6732 Y6.9949 I-0.0894 J-1.4628
G3 X12.5783 Y6.9951 I-0.0562 J-3.2231
G0 Z0.15
G0 X9.7608 Y23.7151
G1 Z-0.5 F30
G2 X9.9038 Y23.7608 I0.2716 J-0.603 F60
G2 X10.0749 Y23.7773 I0.1686 J-0.8507
G2 X10.2207 Y23.7667 I-0.003 J-1.0474
G2 X10.394 Y23.7315 I-0.2175 J-1.5152
G2 X10.378 Y23.6436 I-0.2023 J-0.0087
G2 X10.3254 Y23.57 I-0.1914 J0.0813
G2 X10.2567 Y23.5243 I-0.1931 J0.2156
G2 X10.149 Y23.4861 I-0.2386 J0.5012
G2 X10.049 Y23.469 I-0.1728 J0.7124
G2 X9.9356 Y23.4647 I-0.0913 J0.9145
G2 X9.8303 Y23.4737 I0.0209 J0.8695
G2 X9.7559 Y23.4911 I0.066 J0.4498
G3 X9.7566 Y23.5191 I-3.8098 J0.1121
G3 X9.7583 Y23.6031 I-34.2723 J0.756
G2 X9.7601 Y23.6871 I34.2851 J-0.6723
G2 X9.7608 Y23.7151 I3.8103 J-0.0841
G0 Z0.15
G0 X8.986 Y22.1943
G1 Z-0.5 F30
G3 X9.0475 Y22.2348 I-0.574 J0.938 F60
G3 X9.1221 Y22.2907 I-1.0175 J1.4368
G3 X9.1655 Y22.326 I-1.3274 J1.6786
G3 X9.2516 Y22.3987 I-5.5599 J6.665
G2 X9.3275 Y22.4631 I6.393 J-7.4644
G2 X9.3657 Y22.4945 I1.5601 J-1.8593
G2 X9.4309 Y22.5448 I1.2542 J-1.5582
G2 X9.4843 Y22.5821 I0.7427 J-1.0047
G2 X9.6254 Y22.6593 I0.5282 J-0.7984
G2 X9.7526 Y22.7007 I0.2673 J-0.6048
G2 X9.7182 Y22.5722 I-0.5472 J0.0773
G2 X9.6459 Y22.4348 I-0.699 J0.2805
G2 X9.6091 Y22.3834 I-0.8195 J0.5466
G2 X9.5589 Y22.3209 I-1.2606 J0.963
G2 X9.5273 Y22.2846 I-1.4738 J1.2486
G2 X9.4623 Y22.2125 I-5.8621 J5.2231
G3 X9.3968 Y22.1399 I5.7622 J-5.2633
G3 X9.365 Y22.1033 I1.4352 J-1.2783
G3 X9.3144 Y22.0404 I1.2054 J-1.0203
G3 X9.2775 Y21.9885 I0.7808 J-0.5951
G3 X9.2994 Y21.8954 I0.9194 J0.1668
G3 X9.3371 Y21.7828 I1.3848 J0.401
G3 X9.3639 Y21.7166 I1.6281 J0.6207
G3 X9.4218 Y21.5853 I6.4639 J2.7729
G2 X9.4732 Y21.4695 I-7.2298 J-3.2776
G2 X9.4973 Y21.4113 I-1.7974 J-0.7805
G2 X9.6192 Y21.0668 I-1.8421 J-0.8453
G2 X9.6909 Y20.6522 I-2.6042 J-0.6641
G2 X9.7044 Y20.2991 I-3.2042 J-0.2987
G2 X9.6776 Y19.8659 I-4.856 J0.082
G2 X9.6632 Y19.7874 I-0.25 J0.0055
G2 X9.6332 Y19.7411 I-0.1127 J0.0402
G2 X9.5856 Y19.7133 I-0.0821 J0.0859
G2 X9.5072 Y19.7028 I-0.0711 J0.2341
G2 X9.4773 Y19.7946 I1.3623 J0.4947
G2 X9.447 Y19.9107 I2.1516 J0.6228
G2 X9.4317 Y19.981 I2.6181 J0.608
G2 X9.4039 Y20.1221 I10.4989 J2.1434
G3 X9.3959 Y20.1637 I-35.4527 J-6.7438
G3 X9.3919 Y20.1845 I-8.8299 J-1.6904
G2 X9.3578 Y20.0148 I-6.8172 J1.2812
G2 X9.3336 Y19.9116 I-2.5433 J0.544
G2 X9.2886 Y19.7605 I-2.0205 J0.5191
G2 X9.243 Y19.6447 I-1.2322 J0.418
G2 X9.1728 Y19.5139 I-0.9743 J0.4384
G2 X9.097 Y19.4128 I-0.6548 J0.4122
G2 X8.9925 Y19.3167 I-0.5216 J0.4624
G2 X8.8724 Y19.2451 I-0.4044 J0.5415
G2 X8.7962 Y19.2017 I-0.2076 J0.276
G2 X8.7151 Y19.1803 I-0.1204 J0.2927
G2 X8.6408 Y19.179 I-0.0434 J0.3468
G2 X8.5527 Y19.1947 I0.0448 J0.5055
G2 X8.4823 Y19.2183 I0.1683 J0.6199
G2 X8.3937 Y19.2584 I0.4084 J1.0202
G2 X8.3398 Y19.2872 I0.6204 J1.2237
G2 X8.2466 Y19.3414 I2.094 J3.7103
G2 X8.1577 Y19.4027 I0.2233 J0.4191
G2 X8.0686 Y19.4967 I0.4493 J0.5149
G2 X8.0375 Y19.539 I0.7069 J0.5526
G2 X8.001 Y19.5945 I1.1847 J0.8192
G2 X7.9803 Y19.6285 I1.4815 J0.9265
G2 X7.9398 Y19.6975 I6.0426 J3.5898
G3 X7.8922 Y19.7783 I-5.0791 J-2.9397
G3 X7.8679 Y19.8173 I-1.2076 J-0.725
G3 X7.8125 Y19.8095 I-0.0016 J-0.1887
G3 X7.7507 Y19.7824 I0.0783 J-0.263
G3 X7.7167 Y19.7594 I0.1794 J-0.3022
G3 X7.6517 Y19.7068 I0.8867 J-1.1603
G2 X7.6344 Y19.6919 I-3.2647 J3.7999
G2 X7.6258 Y19.6847 I-0.7757 J0.9113
G3 X7.6812 Y19.5771 I0.7208 J0.3026
G3 X7.7662 Y19.457 I0.9845 J0.6068
G3 X7.8242 Y19.3898 I1.0899 J0.8808
G3 X7.9476 Y19.2596 I4.2079 J3.866
G2 X8.0502 Y19.1525 I-4.9639 J-4.8566
G2 X8.0994 Y19.0976 I-1.2525 J-1.1742
G2 X8.1753 Y19.0013 I-1.0758 J-0.9249
G2 X8.2285 Y18.9182 I-0.7464 J-0.5371
G2 X8.1192 Y18.8959 I-0.1689 J0.5492
G2 X8.019 Y18.8963 I-0.0481 J0.461
G2 X7.9314 Y18.9149 I0.0523 J0.4623
G2 X7.8388 Y18.9532 I0.1749 J0.5547
G2 X7.7666 Y18.9962 I0.3239 J0.6253
G2 X7.6783 Y19.0624 I0.6825 J1.0032
G2 X7.628 Y19.1057 I0.9688 J1.1777
G2 X7.5277 Y19.1977 I4.2774 J4.7612
G3 X7.4399 Y19.2786 I-4.9858 J-5.3179
G3 X7.396 Y19.3172 I-1.175 J-1.2952
G3 X7.3196 Y19.3775 I-0.9067 J-1.0692
G3 X7.2578 Y19.4188 I-0.485 J-0.6596
G3 X7.1578 Y19.4054 I0.2165 J-1.9915
G3 X6.9567 Y19.3706 I1.2941 J-8.0881
G2 X6.8363 Y19.3488 I-2.5087 J13.5117
G2 X6.7762 Y19.3388 I-0.593 J3.3603
G2 X6.6756 Y19.3247 I-0.441 J2.7893
G2 X6.5954 Y19.3168 I-0.2147 J1.7683
G2 X6.3954 Y19.3162 I-0.1039 J1.3727
G2 X6.2319 Y19.3422 I0.0658 J0.941
G2 X6.2376 Y19.3724 I0.3615 J-0.053
G2 X6.2479 Y19.4105 I0.5869 J-0.1372
G2 X6.2551 Y19.4331 I0.7099 J-0.2158
G2 X6.2709 Y19.4785 I2.8898 J-0.9802
G3 X6.2982 Y19.562 I-1.5545 J0.5548
G3 X6.3081 Y19.6032 I-0.3678 J0.1096
G3 X6.3126 Y19.6723 I-0.2997 J0.0543
G3 X6.3019 Y19.73 I-0.2183 J-0.0107
G3 X6.2925 Y19.77 I-0.3902 J-0.0704
G3 X6.2653 Y19.8562 I-1.8407 J-0.5335
G2 X6.2458 Y19.9152 I2.8083 J0.9597
G2 X6.2372 Y19.9444 I0.6784 J0.2161
G2 X6.2261 Y19.9938 I0.5433 J0.1478
G2 X6.2217 Y20.0316 I0.3121 J0.0554
G2 X6.2233 Y20.0769 I0.2545 J0.0142
G2 X6.232 Y20.1152 I0.1901 J-0.0234
G2 X6.2511 Y20.1549 I0.1755 J-0.0598
G2 X6.2813 Y20.1927 I0.1893 J-0.1203
G2 X6.342 Y20.1562 I-1.1403 J-1.9609
G2 X6.4619 Y20.08 I-4.8301 J-7.7396
G3 X6.585 Y20.0019 I4.8335 J7.483
G3 X6.6474 Y19.9645 I1.1748 J1.8858
G3 X6.7542 Y19.9073 I0.9261 J1.6012
G3 X6.8436 Y19.8675 I0.5342 J1.0814
G3 X6.9006 Y20.0575 I-0.8807 J0.3678
G3 X6.9273 Y20.3084 I-1.5183 J0.288
G3 X6.9272 Y20.4099 I-2.0657 J0.0495
G3 X6.9215 Y20.5388 I-3.3384 J-0.084
G3 X6.9158 Y20.6159 I-4.0388 J-0.258
G3 X6.9023 Y20.7695 I-16.0765 J-1.3355
G2 X6.8879 Y20.9355 I14.2735 J1.3232
G2 X6.8823 Y21.0161 I3.3562 J0.2718
G3 X6.8188 Y21.041 I-0.6761 J-1.6312
G3 X6.7386 Y21.0693 I-0.9511 J-2.5713
G3 X6.6901 Y21.0851 I-1.0446 J-3.1178
G3 X6.5927 Y21.1156 I-3.9829 J-12.5307
G2 X6.4605 Y21.1576 I2.857 J9.2362
G2 X6.3949 Y21.1799 I0.747 J2.2976
G2 X6.4773 Y21.2533 I0.2869 J-0.2394
G2 X6.5952 Y21.311 I0.2897 J-0.4429
G2 X6.6464 Y21.3264 I0.2319 J-0.6756
G2 X6.7131 Y21.3418 I0.2964 J-1.1334
G2 X6.7534 Y21.3493 I0.2804 J-1.4024
G2 X6.8344 Y21.3625 I0.9616 J-5.6464
G3 X6.9022 Y21.3734 I-1.0083 J6.48
G3 X6.935 Y21.3792 I-0.2538 J1.526
G3 X7.4463 Y21.4815 I-0.4615 J3.6355
G3 X8.0038 Y21.6734 I-1.2438 J4.5176
G3 X8.4624 Y21.89 I-2.0972 J5.0363
G3 X8.986 Y22.1943 I-3.6447 J6.8732
G0 Z0.15
G0 X8.4846 Y21.45
G1 Z-0.5 F30
G2 X8.3343 Y21.3707 I-0.883 J1.4912 F60
G2 X8.1404 Y21.2894 I-1.122 J2.4049
G2 X8.0211 Y21.2476 I-1.1182 J2.9953
G2 X7.7793 Y21.1707 I-4.0231 J12.2322
G3 X7.6525 Y21.1313 I7.232 J-23.5422
G3 X7.5894 Y21.1112 I1.834 J-5.8575
G3 X7.4847 Y21.0759 I1.5767 J-4.8515
G3 X7.4019 Y21.0457 I1.0703 J-3.0657
G3 X7.3841 Y20.8417 I2.9437 J-0.359
G3 X7.3779 Y20.5873 I4.5684 J-0.239
G3 X7.3808 Y20.424 I5.6123 J0.0188
G3 X7.3928 Y20.1277 I18.5005 J0.6007
G3 X7.5272 Y20.1695 I-0.6656 J2.3737
G3 X7.6917 Y20.2302 I-1.2427 J3.6227
G3 X7.7892 Y20.27 I-1.6918 J4.2821
G3 X7.9831 Y20.3531 I-7.1799 J17.0231
G2 X8.1698 Y20.4332 I7.661 J-17.5998
G2 X8.2637 Y20.4718 I1.8651 J-4.4118
G2 X8.4221 Y20.5309 I1.4742 J-3.7041
G2 X8.5513 Y20.5723 I0.8467 J-2.4216
G2 X8.6702 Y20.6022 I0.3156 J-1.0039
G2 X8.8204 Y20.6235 I0.301 J-1.582
G2 X8.9114 Y20.6299 I0.1825 J-1.9396
G2 X9.0949 Y20.6364 I0.3699 J-7.8741
G3 X9.2406 Y20.6409 I-0.2347 J9.9217
G3 X9.3129 Y20.6448 I-0.094 J2.4514
G3 X9.261 Y20.9167 I-3.0312 J-0.4371
G3 X9.1903 Y21.1598 I-2.4894 J-0.5925
G3 X9.0847 Y21.4151 I-2.1958 J-0.7585
G3 X8.9597 Y21.6353 I-1.7545 J-0.8511
G3 X8.878 Y21.6348 I-0.0393 J-0.2956
G3 X8.7843 Y21.6101 I0.0596 J-0.4159
G3 X8.748 Y21.5944 I0.2054 J-0.5238
G3 X8.7029 Y21.5714 I0.3963 J-0.8332
G3 X8.6765 Y21.5565 I0.5402 J-0.9917
G3 X8.6237 Y21.5254 I2.3035 J-3.9705
G2 X8.5306 Y21.4724 I-1.3064 J2.1842
G2 X8.4846 Y21.45 I-0.2767 J0.5102
G0 Z0.15
G0 X8.2129 Y20.0264
G1 Z-0.5 F30
G3 X8.2212 Y19.9324 I0.366 J-0.0151 F60
G3 X8.257 Y19.8266 I0.5004 J0.1106
G3 X8.3133 Y19.7317 I0.5043 J0.2349
G3 X8.3846 Y19.6532 I0.4144 J0.3049
G3 X8.4759 Y19.5903 I0.2933 J0.3277
G3 X8.564 Y19.5605 I0.1418 J0.2743
G3 X8.6649 Y19.5621 I0.0463 J0.2622
G3 X8.7637 Y19.6024 I-0.061 J0.2908
G3 X8.8382 Y19.6606 I-0.2344 J0.3766
G3 X8.9008 Y19.7354 I-0.3288 J0.339
G3 X8.9436 Y19.8116 I-0.4385 J0.296
G3 X8.9793 Y19.9073 I-0.6572 J0.3001
G3 X9.0101 Y20.0577 I-0.8654 J0.2552
G3 X9.0239 Y20.2882 I-2.0296 J0.2375
G3 X8.7911 Y20.2522 I0.3251 J-2.8676
G3 X8.6023 Y20.2052 I0.3806 J-1.9318
G3 X8.3883 Y20.1242 I0.4835 J-1.6005
G3 X8.2129 Y20.0264 I0.5374 J-1.1707
G0 Z0.15
G0 X12.5495 Y19.2813
G1 Z-0.5 F30
G2 X12.7457 Y19.4043 I0.5921 J-0.7264 F60
G2 X13.0156 Y19.4985 I0.6034 J-1.2945
G2 X13.1323 Y19.5226 I0.429 J-1.7865
G2 X13.2738 Y19.5431 I0.4499 J-2.6079
G2 X13.3821 Y19.5539 I0.3746 J-3.1923
G2 X13.5318 Y19.5645 I0.5053 J-6.0798
G2 X13.9462 Y19.5355 I0.0051 J-2.9016
G2 X14.2491 Y19.4623 I-0.2304 J-1.617
G2 X14.4251 Y19.3868 I-0.429 J-1.2419
G2 X14.5662 Y19.2979 I-0.4593 J-0.8856
G2 X14.7012 Y19.1725 I-0.5425 J-0.7197
G2 X14.8047 Y19.026 I-0.6425 J-0.5637
G1 X14.7742 Y18.9486
G2 X14.7149 Y18.9486 I-0.0298 J0.7633
G2 X14.6418 Y18.9538 I0.0451 J1.1675
G2 X14.598 Y18.9589 I0.1418 J1.3945
G2 X14.5106 Y18.9713 I0.7438 J5.5677
G3 X14.3962 Y18.9868 I-0.6345 J-4.2411
G3 X14.3387 Y18.9923 I-0.13 J-1.0641
G3 X14.3186 Y18.9391 I1.0477 J-0.4266
G3 X14.282 Y18.8303 I4.3578 J-1.5243
G2 X14.2448 Y18.7196 I-4.3336 J1.3959
G2 X14.2242 Y18.6654 I-1.0583 J0.3711
G2 X14.1831 Y18.5784 I-0.8555 J0.3507
G2 X14.1419 Y18.5123 I-0.5332 J0.2866
G2 X13.9794 Y18.3482 I-1.2564 J1.0817
G2 X13.756 Y18.1735 I-1.6494 J1.8785
G2 X13.6613 Y18.1101 I-1.8406 J2.6502
G2 X13.5398 Y18.0343 I-2.7555 J4.2828
G2 X13.4659 Y17.9904 I-3.1751 J5.2539
G2 X13.317 Y17.9039 I-12.4559 J21.2784
G3 X13.1675 Y17.8171 I12.2384 J-21.2458
G3 X13.0936 Y17.7731 I3.0743 J-5.251
G3 X12.9719 Y17.6972 I2.6074 J-4.3125
G3 X12.8772 Y17.6337 I1.7229 J-2.6746
G3 X12.8272 Y17.5494 I0.7238 J-0.4862
G3 X12.7755 Y17.4379 I1.2152 J-0.631
G3 X12.749 Y17.3689 I1.545 J-0.6336
G3 X12.7 Y17.2276 I6.4243 J-2.3079
G2 X12.6704 Y17.1404 I-10.5815 J3.5415
G2 X12.6551 Y17.0971 I-2.6231 J0.9021
G2 X12.6278 Y17.0256 I-2.1598 J0.7829
G2 X12.604 Y16.9697 I-1.3463 J0.5394
G2 X12.5329 Y16.8365 I-1.0218 J0.46
G2 X12.4589 Y16.7371 I-0.641 J0.3999
G2 X12.0373 Y16.3126 I-2.9714 J2.5299
G2 X11.6194 Y16.0126 I-1.8857 J2.1848
G2 X11.3627 Y15.8802 I-1.2748 J2.1582
G2 X11.115 Y15.7884 I-0.8518 J1.9164
G2 X10.8376 Y15.7266 I-0.5595 J1.8599
G2 X10.5669 Y15.7079 I-0.2573 J1.7527
G2 X10.4507 Y15.7153 I-0.0167 J0.6527
G2 X10.3325 Y15.744 I0.1086 J0.7044
G2 X10.2328 Y15.7852 I0.2535 J0.7555
G2 X10.1226 Y15.8479 I0.4872 J0.985
G2 X10.0367 Y15.9084 I0.7242 J1.1181
G2 X9.9323 Y15.9936 I1.3319 J1.7389
G2 X9.8724 Y16.0472 I1.7438 J2.0077
G2 X9.757 Y16.1554 I6.9993 J7.5832
G3 X9.7254 Y16.1855 I-24.1337 J-25.3556
G3 X9.7098 Y16.2003 I-5.8438 J-6.155
G2 X9.5975 Y16.3167 I1.0912 J1.1644
G2 X9.4725 Y16.4727 I1.8379 J1.6005
G2 X9.4033 Y16.5709 I2.3643 J1.74
G2 X9.2705 Y16.7722 I9.798 J6.6098
G3 X9.1984 Y16.8831 I-18.1177 J-11.6915
G3 X9.162 Y16.9381 I-4.4938 J-2.9391
G3 X9.0995 Y17.0286 I-3.7025 J-2.4871
G3 X9.0478 Y17.0994 I-2.3154 J-1.6395
G3 X8.9142 Y17.1027 I-0.4364 J-14.9863
G3 X8.6431 Y17.1076 I-1.2451 J-61.6468
G2 X8.2057 Y17.1169 I0.6209 J39.2982
G2 X7.9865 Y17.1252 I0.2659 J9.8705
G2 X7.6213 Y17.1514 I0.4009 J8.151
G2 X7.3343 Y17.1867 I0.4777 J5.0661
G2 X6.9933 Y17.2528 I0.6449 J4.2427
G2 X6.7034 Y17.3357 I0.7423 J3.1443
G2 X6.3894 Y17.4623 I0.9312 J2.7624
G2 X6.1109 Y17.6156 I1.0986 J2.3254
G2 X5.9742 Y17.6974 I0.3331 J0.712
G2 X5.8317 Y17.8237 I0.6716 J0.9012
G2 X5.7801 Y17.8808 I1.0579 J1.0069
G2 X5.7185 Y17.9559 I1.7677 J1.5132
G2 X5.6829 Y18.0022 I2.2149 J1.7412
G2 X5.613 Y18.096 I9.0734 J6.8338
G3 X5.5175 Y18.2229 I-6.689 J-4.9307
G3 X5.4686 Y18.2842 I-1.6066 J-1.2323
G3 X5.3483 Y18.1914 I0.681 J-1.0081
G3 X5.2141 Y18.0613 I1.2119 J-1.3843
G3 X5.1395 Y17.9771 I1.626 J-1.515
G3 X4.9959 Y17.802 I6.8776 J-5.7861
G2 X4.8614 Y17.6374 I-7.4599 J5.9617
G2 X4.7918 Y17.558 I-1.8065 J1.5108
G2 X4.717 Y17.5684 I-0.0055 J0.2348
G2 X4.672 Y17.595 I0.0332 J0.1072
G2 X4.644 Y17.6391 I0.0781 J0.0806
G2 X4.6313 Y17.7136 I0.2219 J0.0763
G2 X4.7188 Y18.0077 I1.0715 J-0.1586
G2 X4.8974 Y18.2921 I1.1788 J-0.5423
G2 X5.1217 Y18.5109 I1.13 J-0.934
G2 X5.4019 Y18.6885 I1.0149 J-1.2919
G2 X5.8775 Y18.8988 I2.1721 J-4.2679
G2 X6.2775 Y19.0202 I1.0966 J-2.8945
G2 X6.7735 Y19.0841 I0.5704 J-2.4695
G2 X7.2067 Y19.0474 I0.0562 J-1.9144
G2 X7.1766 Y18.9816 I-0.3279 J0.1103
G2 X7.1381 Y18.9314 I-0.2281 J0.1349
G2 X7.0886 Y18.8918 I-0.1849 J0.1805
G2 X7.0256 Y18.8622 I-0.163 J0.2651
G2 X6.9352 Y18.8285 I-0.775 J1.9398
G2 X6.8205 Y18.791 I-1.0722 J3.0907
G2 X6.751 Y18.7705 I-1.1522 J3.7646
G2 X6.6113 Y18.7312 I-4.3426 J15.1815
G3 X6.3983 Y18.6699 I2.7391 J-9.9197
G3 X6.2935 Y18.636 I0.73 J-2.4376
G3 X6.1233 Y18.5685 I0.6917 J-1.9916
G3 X5.9915 Y18.5007 I0.5643 J-1.2597
G3 X5.989 Y18.3886 I0.3912 J-0.0649
G3 X6.0174 Y18.2843 I0.3658 J0.0439
G3 X6.0656 Y18.2018 I0.3845 J0.1689
G3 X6.1449 Y18.1138 I0.5183 J0.3874
G3 X6.2206 Y18.0517 I0.5674 J0.6146
G3 X6.3278 Y17.9809 I0.8457 J1.164
G3 X6.3987 Y17.9406 I0.9193 J1.537
G3 X6.5201 Y17.8775 I2.3866 J4.4369
G3 X6.7874 Y17.7861 I1.2403 J3.1935
G3 X7.0847 Y17.7102 I1.1483 J3.8767
G3 X7.3554 Y17.6606 I0.944 J4.3847
G3 X7.6662 Y17.6219 I0.8716 J5.7403
G3 X7.9315 Y17.6014 I0.651 J6.7077
G3 X8.2557 Y17.5881 I0.5737 J10.0071
G3 X8.4835 Y17.5845 I0.3068 J12.3205
G3 X8.8444 Y17.5843 I0.1979 J30.9042
G2 X9.0044 Y17.5689 I0.0291 J-0.5351
G2 X9.1582 Y17.5053 I-0.1404 J-0.5575
G2 X9.2839 Y17.4065 I-0.319 J-0.5355
G2 X9.3862 Y17.2731 I-0.4913 J-0.4824
G2 X9.4148 Y17.2297 I-6.9706 J-4.6286
G2 X9.4727 Y17.1411 I-29.0125 J-19.0061
G3 X9.5992 Y16.9495 I14.062 J9.1508
G3 X9.6649 Y16.8543 I3.5331 J2.3686
G3 X9.7812 Y16.6998 I2.8563 J2.0295
G3 X9.8798 Y16.5847 I1.6827 J1.3413
G3 X10.0099 Y16.4569 I1.3204 J1.2139
G3 X10.1332 Y16.3599 I0.8804 J0.9925
G3 X10.2851 Y16.2702 I0.6815 J0.9806
G3 X10.4409 Y16.2077 I0.4795 J0.9692
G3 X10.6731 Y16.1799 I0.2513 J1.1181
G3 X10.9114 Y16.1999 I0.0199 J1.197
G3 X11.1225 Y16.2577 I-0.2383 J1.285
G3 X11.3467 Y16.3593 I-0.5683 J1.5518
G3 X11.6962 Y16.6016 I-0.9634 J1.7628
G3 X12.058 Y16.9734 I-1.9545 J2.2637
G3 X12.1362 Y17.0743 I-0.4972 J0.4665
G3 X12.2083 Y17.21 I-0.8344 J0.5302
G3 X12.2317 Y17.2675 I-1.1761 J0.5117
G3 X12.258 Y17.3413 I-1.9082 J0.7226
G3 X12.2725 Y17.386 I-2.3411 J0.7852
G3 X12.3004 Y17.4762 I-9.5062 J2.9885
G2 X12.3516 Y17.6357 I5.3434 J-1.6244
G2 X12.3803 Y17.7132 I1.2893 J-0.4346
G2 X12.4396 Y17.8368 I1.0318 J-0.4192
G2 X12.5009 Y17.9293 I0.6383 J-0.3562
G2 X12.6056 Y18.0114 I0.7143 J-0.8036
G2 X12.7454 Y18.0976 I0.9296 J-1.3505
G2 X12.8333 Y18.1431 I0.9569 J-1.7406
G2 X13.0137 Y18.2281 I3.532 J-7.2595
G3 X13.1815 Y18.3069 I-3.6207 J7.9344
G3 X13.2638 Y18.3487 I-0.9382 J1.9453
G3 X13.3957 Y18.4269 I-0.8444 J1.5752
G3 X13.4956 Y18.4999 I-0.635 J0.9736
G3 X13.586 Y18.5772 I-4.5843 J5.4608
G3 X13.6452 Y18.6298 I-2.0721 J2.3862
G3 X13.7244 Y18.7053 I-1.7365 J1.9014
G3 X13.7866 Y18.7705 I-1.2309 J1.2378
G3 X13.9201 Y18.9438 I-1.0084 J0.9145
G3 X14.0011 Y19.101 I-0.7457 J0.484
G1 X13.969 Y19.1438
G3 X13.8248 Y19.1603 I-0.3088 J-2.0639
G3 X13.6443 Y19.1695 I-0.2552 J-3.2261
G3 X13.5358 Y19.1705 I-0.0899 J-3.8934
G3 X13.3182 Y19.1679 I0.0747 J-15.6432
G2 X13.1138 Y19.1653 I-0.311 J16.6397
G2 X13.0118 Y19.1659 I-0.0265 J4.1412
G2 X12.8422 Y19.1732 I0.0627 J3.4395
G2 X12.7068 Y19.1866 I0.1492 J2.2036
G2 X12.697 Y19.1925 I4.4522 J7.3692
G2 X12.6716 Y19.2079 I30.354 J50.0914
G3 X12.5792 Y19.2637 I-13.4381 J-22.1506
G3 X12.5495 Y19.2813 I-1.3591 J-2.2615
G0 Z0.15
G0 X10.0465 Y18.9733
G1 Z-0.5 F30
G2 X10.2447 Y19.044 I0.4099 J-0.8366 F60
G2 X10.5038 Y19.0801 I0.3275 J-1.403
G2 X10.6103 Y19.0821 I0.0894 J-1.8817
G2 X10.742 Y19.0779 I-0.0263 J-2.8786
G2 X10.8312 Y19.0719 I-0.1945 J-3.5399
G2 X10.9777 Y19.059 I-0.7675 J-9.5587
G3 X11.013 Y19.0527 I0.8133 J4.4798
G3 X11.0847 Y19.0404 I3.2028 J18.4683
G2 X11.2084 Y19.0188 I-1.8739 J-11.0602
G2 X11.2702 Y19.0069 I-0.5031 J-2.78
G2 X11.3728 Y18.9835 I-0.467 J-2.2884
G2 X11.4527 Y18.961 I-0.3549 J-1.4111
G2 X11.6427 Y18.8812 I-0.3284 J-1.0486
G2 X11.7805 Y18.7856 I-0.3436 J-0.6422
G1 X11.7336 Y18.7066
G2 X11.594 Y18.6962 I-0.5183 J6.0036
G2 X11.4191 Y18.6868 I-0.5928 J9.4131
G2 X11.3142 Y18.6826 I-0.5021 J11.321
G2 X11.1039 Y18.6757 I-1.5912 J45.3753
G3 X10.7391 Y18.6621 I0.7959 J-26.1547
G3 X10.5571 Y18.6514 I0.2897 J-6.5244
G3 X10.255 Y18.6211 I0.3929 J-5.4256
G3 X10.0136 Y18.5814 I0.4513 J-3.5032
G3 X10.0328 Y18.7032 I-4.7358 J0.8093
G3 X10.0418 Y18.7765 I-1.7061 J0.2467
G3 X10.0485 Y18.8839 I-1.3959 J0.1411
G3 X10.0465 Y18.9733 I-0.9702 J0.0233
G0 Z0.15
G0 X9.7345 Y18.1121
G1 Z-0.5 F30
G2 X9.7817 Y18.2141 I0.4565 J-0.1497 F60
G2 X9.8538 Y18.3062 I0.4438 J-0.2729
G2 X9.9333 Y18.3741 I0.4252 J-0.4177
G2 X10.0398 Y18.4387 I0.4913 J-0.69
G2 X10.1371 Y18.4821 I0.4687 J-0.9189
G2 X10.2602 Y18.5237 I0.5523 J-1.4312
G2 X10.3579 Y18.5493 I0.5194 J-1.7825
G2 X10.4829 Y18.5757 I0.676 J-2.8983
G3 X10.5606 Y18.5784 I-0.1317 J4.8715
G3 X10.7184 Y18.5858 I-0.8654 J20.1277
G2 X10.8811 Y18.5934 I1.017 J-19.997
G2 X10.9625 Y18.5962 I0.2141 J-5.0135
G2 X11.0986 Y18.5976 I0.1099 J-4.1557
G2 X11.2063 Y18.5947 I-0.0164 J-2.6087
G2 X11.4728 Y18.5639 I-0.0946 J-1.9862
G2 X11.6792 Y18.5073 I-0.2297 J-1.2435
G3 X11.6867 Y18.4888 I2.4384 J0.9754
G3 X11.7097 Y18.4328 I22.3871 J9.1528
G2 X11.7327 Y18.3768 I-22.3642 J-9.2088
G2 X11.7402 Y18.3583 I-2.431 J-0.9939
G2 X11.6277 Y18.3475 I-0.3527 J3.0714
G2 X11.4872 Y18.3386 I-0.3733 J4.7884
G2 X11.4027 Y18.3351 I-0.2792 J5.7548
G2 X11.2337 Y18.33 I-0.7794 J23.0431
G3 X10.9818 Y18.3213 I0.4099 J-15.4756
G3 X10.8559 Y18.3138 I0.1659 J-3.8773
G3 X10.7117 Y18.2982 I0.2078 J-2.5894
G3 X10.5331 Y18.2697 I0.5472 J-4.0007
G3 X10.4264 Y18.249 I0.8726 J-4.7752
G3 X10.2136 Y18.2039 I3.9284 J-19.0748
G2 X10.0545 Y18.1698 I-5.5377 J25.4471
G2 X9.9748 Y18.1535 I-1.3426 J6.3606
G2 X9.8415 Y18.1288 I-1.051 J5.3071
G2 X9.7345 Y18.1121 I-0.5869 J3.4097
G0 Z0.15
G0 X11.5393 Y18.0742
G1 Z-0.5 F30
G2 X11.6374 Y18.0847 I0.0796 J-0.2823 F60
G2 X11.7325 Y18.062 I-0.0182 J-0.288
G2 X11.8101 Y18.0156 I-0.1309 J-0.3062
G2 X11.8838 Y17.9406 I-0.282 J-0.3516
G2 X11.9375 Y17.8555 I-0.4034 J-0.3137
G2 X11.9746 Y17.7591 I-0.4812 J-0.2406
G2 X11.9919 Y17.6559 I-0.4794 J-0.1334
G2 X11.9863 Y17.5662 I-0.367 J-0.0223
G2 X11.905 Y17.3511 I-0.889 J0.2133
G2 X11.7705 Y17.1594 I-0.8376 J0.4443
G2 X11.6084 Y17.0141 I-0.771 J0.6974
G2 X11.4003 Y16.8919 I-0.7479 J1.0351
G2 X11.1854 Y16.8122 I-0.5956 J1.2769
G2 X10.9489 Y16.7652 I-0.4213 J1.5013
G2 X10.7116 Y16.7551 I-0.1847 J1.5474
G2 X10.4895 Y16.7807 I0.0466 J1.381
G2 X10.3733 Y16.8612 I0.3052 J0.5648
G2 X10.2704 Y16.9714 I0.4795 J0.5512
G2 X10.1947 Y17.0927 I0.6282 J0.4758
G2 X10.1395 Y17.2311 I0.765 J0.3852
G2 X10.1721 Y17.3661 I0.8637 J-0.1369
G2 X10.2287 Y17.5037 I0.9558 J-0.3126
G2 X10.3049 Y17.6318 I0.9236 J-0.4625
G2 X10.3971 Y17.7453 I0.816 J-0.5687
G2 X10.646 Y17.9302 I0.6441 J-0.6071
G2 X10.9028 Y17.9977 I0.2897 J-0.5806
G2 X10.8687 Y17.9367 I-1.2917 J0.6827
G2 X10.7941 Y17.8138 I-5.3342 J3.154
G3 X10.7334 Y17.7148 I6.6643 J-4.1522
G3 X10.7044 Y17.6651 I1.6553 J-0.9977
G3 X10.66 Y17.5801 I1.3756 J-0.7742
G3 X10.6299 Y17.5114 I0.8675 J-0.421
G3 X10.585 Y17.3337 I0.6741 J-0.2646
G3 X10.5891 Y17.1743 I0.5446 J-0.0659
G3 X10.7315 Y17.1645 I0.4125 J4.9364
G3 X10.8254 Y17.1614 I0.117 J2.1428
G3 X10.9584 Y17.1651 I0.0185 J1.7207
G3 X11.0639 Y17.1773 I-0.073 J1.0954
G3 X11.1862 Y17.2063 I-0.1474 J0.8944
G3 X11.2858 Y17.2464 I-0.197 J0.6322
G3 X11.3875 Y17.311 I-0.2677 J0.5342
G3 X11.4726 Y17.3933 I-0.3571 J0.4542
G3 X11.522 Y17.4439 I-0.2141 J0.2587
G3 X11.5569 Y17.5001 I-0.2299 J0.1816
G3 X11.5769 Y17.5556 I-0.2782 J0.1317
G3 X11.5883 Y17.623 I-0.3997 J0.1021
G3 X11.5899 Y17.6802 I-0.5084 J0.0429
G3 X11.5846 Y17.7556 I-0.8921 J-0.0248
G3 X11.5786 Y17.8006 I-1.1129 J-0.1258
G3 X11.5636 Y17.8914 I-4.5606 J-0.7038
G2 X11.553 Y17.9542 I6.3554 J1.111
G2 X11.5483 Y17.9847 I1.5009 J0.2472
G2 X11.542 Y18.0357 I1.1979 J0.1723
G2 X11.5393 Y18.0742 I0.6823 J0.0688
G0 Z0.15
G0 X9.0972 Y9.4191
G1 Z-0.5 F30
G2 X9.0773 Y9.5296 I3.9639 J0.7712 F60
G2 X9.0665 Y9.604 I1.7882 J0.2965
G2 X9.0575 Y9.7075 I1.4463 J0.1786
G2 X9.0568 Y9.7915 I0.9523 J0.0492
G2 X9.0665 Y9.8896 I0.801 J-0.0293
G2 X9.0861 Y9.973 I0.5974 J-0.0962
G2 X9.1223 Y10.0615 I0.5268 J-0.1637
G2 X9.1721 Y10.1404 I0.4668 J-0.24
G2 X9.2724 Y9.9805 I-0.812 J-0.6207
G2 X9.3606 Y9.7673 I-1.3636 J-0.6888
G2 X9.3874 Y9.6783 I-1.893 J-0.6201
G2 X9.4166 Y9.5646 I-3.0566 J-0.8455
G2 X9.4322 Y9.496 I-3.7301 J-0.8847
G2 X9.4616 Y9.3582 I-15.033 J-3.2753
G3 X9.492 Y9.2158 I14.4016 J2.9998
G3 X9.508 Y9.1457 I3.5093 J0.7673
G3 X9.525 Y9.0653 I25.1589 J5.272
G3 X9.5595 Y8.9041 I101.0098 J21.5041
G2 X9.617 Y8.6331 I-60.3704 J-12.9531
G2 X9.6448 Y8.4974 I-15.121 J-3.1735
G2 X9.6882 Y8.2705 I-12.6072 J-2.5281
G2 X9.7192 Y8.0887 I-8.0611 J-1.4663
G2 X9.7749 Y7.6316 I-6.2883 J-0.9982
G2 X9.7896 Y7.2627 I-4.0773 J-0.3478
G2 X9.7887 Y7.0952 I-3.5287 J-0.0645
G2 X9.7786 Y6.8866 I-5.4811 J0.1601
G2 X9.769 Y6.7616 I-6.57 J0.4428
G2 X9.7462 Y6.5116 I-26.2908 J2.2754
G3 X9.7239 Y6.2688 I27.0674 J-2.6022
G3 X9.7144 Y6.1473 I6.7705 J-0.5897
G3 X9.7041 Y5.9445 I5.6499 J-0.3901
G3 X9.7023 Y5.7815 I3.6456 J-0.1206
G2 X9.7021 Y5.5715 I-10.4811 J-0.0935
G2 X9.6974 Y5.3337 I-13.4409 J0.1494
G2 X9.6926 Y5.1918 I-14.9571 J0.431
G2 X9.6816 Y4.9222 I-53.9426 J2.0671
G3 X9.6726 Y4.7055 I62.7711 J-2.7197
G3 X9.6687 Y4.5976 I15.5794 J-0.6211
G3 X9.664 Y4.4183 I13.1724 J-0.4338
G3 X9.6623 Y4.2704 I8.9687 J-0.1733
G3 X9.6701 Y3.9044 I7.6354 J-0.0216
G3 X9.6944 Y3.5603 I6.7713 J0.3058
G2 X9.6908 Y3.4625 I-0.3149 J-0.0375
G2 X9.6584 Y3.3742 I-0.2876 J0.0557
G2 X9.6058 Y3.3066 I-0.2536 J0.1432
G2 X9.5415 Y3.2627 I-0.1662 J0.1743
G2 X9.4679 Y3.2448 I-0.0812 J0.1737
G2 X9.4067 Y3.2573 I-0.0052 J0.1306
G2 X9.3546 Y3.302 I0.0559 J0.1179
G2 X9.317 Y3.3896 I0.2084 J0.1413
G2 X9.2455 Y3.7315 I2.8561 J0.7759
G2 X9.2068 Y4.1329 I3.9045 J0.5789
G2 X9.2022 Y4.2958 I4.9265 J0.2217
G2 X9.2025 Y4.4988 I7.6435 J0.0911
G2 X9.2051 Y4.6208 I9.1971 J-0.1346
G2 X9.2127 Y4.8671 I37.4414 J-1.0451
G3 X9.219 Y5.0592 I-49.6629 J1.7132
G3 X9.2216 Y5.1568 I-12.7909 J0.3917
G3 X9.2241 Y5.3196 I-10.8586 J0.2497
G3 X9.224 Y5.453 I-7.2809 J0.0582
G3 X9.2968 Y6.4245 I-12.8727 J1.4535
G3 X9.298 Y7.4404 I-14.0776 J0.5242
G3 X9.2318 Y8.4123 I-14.7055 J-0.5136
G3 X9.0972 Y9.4191 I-15.9152 J-1.615

(profile 2)
G0 Z0.15
T1 M6
G0 X10.9593 Y24.5012
G1 Z-0.1 F30
G2 X11.9451 Y24.6294 I5.9363 J-41.816 F60
G2 X12.3404 Y24.6746 I6.3457 J-53.7651
G2 X12.8353 Y24.7278 I9.307 J-84.1646
G2 X13.1324 Y24.7585 I10.5756 J-101.0719
G2 X13.727 Y24.8185 I41.1078 J-404.3488
G3 X14.0318 Y24.8491 I-78.9631 J788.2197
G3 X14.1841 Y24.8644 I-19.8024 J196.9022
G3 X14.293 Y24.9593 I-0.0126 J0.1244
G3 X14.3258 Y25.1515 I-1.372 J0.333
G3 X14.3363 Y25.3616 I-2.0953 J0.2102
G3 X14.3362 Y25.3856 I-2.1059 J0
G3 X14.3335 Y25.4783 I-2.6898 J-0.0306
G3 X14.3267 Y25.5926 I-4.1681 J-0.1913
G3 X14.3212 Y25.6607 I-4.984 J-0.366
G3 X14.3091 Y25.7941 I-19.513 J-1.7014
G2 X14.2996 Y25.8976 I24.2883 J2.2852
G2 X14.2953 Y25.9482 I5.8991 J0.5297
G3 X14.2949 Y25.9519 I-0.1246 J-0.0101
G2 X14.2872 Y26.0223 I68.8651 J7.6517
G2 X14.2717 Y26.1634 I276.7962 J30.469
G3 X14.2218 Y26.6083 I-88.6934 J-9.7174
G3 X14.195 Y26.8318 I-22.315 J-2.5582
G3 X14.1448 Y27.2042 I-18.5701 J-2.3177
G3 X14.0978 Y27.5014 I-11.8337 J-1.7189
G3 X13.9406 Y28.2389 I-9.1665 J-1.568
G3 X13.7607 Y28.8181 I-5.8106 J-1.4869
G3 X13.7117 Y28.9099 I-0.315 J-0.1091
G3 X13.6358 Y28.9814 I-0.2482 J-0.1874
G3 X13.5504 Y29.0217 I-0.1793 J-0.2695
G3 X13.4551 Y29.0371 I-0.1044 J-0.3445
G3 X13.2693 Y28.994 I-0.0096 J-0.3811
G3 X13.1371 Y28.8742 I0.1628 J-0.3123
G3 X13.0634 Y28.7815 I4.2509 J-3.4559
G3 X12.9687 Y28.6574 I6.7154 J-5.2225
G3 X12.913 Y28.5823 I8.1627 J-6.1109
G3 X12.8036 Y28.4326 I32.6248 J-23.9607
G2 X12.6237 Y28.1885 I-19.6863 J14.3199
G2 X12.5331 Y28.0702 I-4.7902 J3.5765
G2 X12.3755 Y27.8797 I-3.8948 J3.0622
G2 X12.2423 Y27.736 I-2.3798 J2.0713
G3 X12.2413 Y27.735 I0.089 J-0.0878
G2 X11.8953 Y27.4022 I-4.5541 J4.3898
G2 X11.4967 Y27.0715 I-4.8846 J5.4819
G2 X11.1142 Y26.7939 I-4.9137 J6.3668
G2 X10.6703 Y26.508 I-5.6368 J8.2656
G2 X10.2677 Y26.2747 I-5.8799 J9.6828
G2 X9.7881 Y26.0208 I-7.4276 J13.447
G2 X9.393 Y25.8264 I-8.2498 J16.268
G2 X9.2138 Y25.7416 I-13.1079 J27.4722
G2 X9.2926 Y25.861 I8.1442 J-5.2884
G3 X9.3803 Y25.9938 I-9.4241 J6.3189
G3 X9.4235 Y26.0624 I-2.3929 J1.5563
G3 X9.4912 Y26.1809 I-1.9989 J1.2206
G3 X9.5392 Y26.2795 I-1.2904 J0.6882
G3 X9.5863 Y26.4044 I-1.1344 J0.4997
G3 X9.6154 Y26.5205 I-0.9197 J0.2918
G3 X9.6299 Y26.655 I-0.8816 J0.1633
G3 X9.6303 Y26.6827 I-0.8645 J0.0277
G3 X9.6239 Y26.7883 I-0.8649 J0
G3 X9.4947 Y26.8979 I-0.1241 J-0.0153
G3 X9.336 Y26.8757 I0.0336 J-0.8172
G3 X9.1889 Y26.8237 I0.1801 J-0.7445
G3 X9.0694 Y26.7542 I0.3448 J-0.7297
G3 X8.9507 Y26.6568 I0.597 J-0.8491
G3 X8.8641 Y26.5657 I0.8578 J-0.9009
G3 X8.7659 Y26.4417 I1.5608 J-1.3383
G3 X8.7118 Y26.365 I2.0491 J-1.4998
G3 X8.6101 Y26.2117 I8.3969 J-5.6819
G2 X8.5206 Y26.0763 I-9.0383 J5.8796
G2 X8.4772 Y26.0139 I-2.0387 J1.3704
G2 X8.462 Y25.993 I-1.5646 J1.1234
G2 X8.439 Y26.0508 I2.7239 J1.123
G2 X8.4088 Y26.1315 I3.3265 J1.29
G2 X8.3498 Y26.2984 I13.8156 J4.9774
G3 X8.2855 Y26.4798 I-13.1956 J-4.5751
G3 X8.2506 Y26.572 I-3.3534 J-1.2147
G3 X8.1859 Y26.724 I-2.7764 J-1.0933
G3 X8.125 Y26.8452 I-1.7877 J-0.821
G3 X8.1236 Y26.8477 I-0.1097 J-0.0599
G3 X8.0303 Y26.9505 I-0.2822 J-0.1625
G3 X7.9026 Y27.0051 I-0.1889 J-0.2653
G3 X7.7708 Y27.0047 I-0.0648 J-0.3386
G3 X7.647 Y26.9552 I0.0705 J-0.356
G3 X7.5892 Y26.8584 I0.0669 J-0.1056
G3 X7.5851 Y26.7407 I1.6693 J-0.1177
G3 X7.5925 Y26.5838 I1.6734 J0
G3 X7.6448 Y26.2625 I2.3996 J0.2259
G3 X7.6769 Y26.137 I2.999 J0.6991
G3 X7.7225 Y25.983 I4.6265 J1.286
G3 X7.752 Y25.8917 I5.506 J1.7308
G3 X7.8125 Y25.7122 I21.68 J7.2134
G2 X7.8714 Y25.5377 I-21.7172 J-7.4262
G2 X7.8992 Y25.452 I-5.3097 J-1.7682
G2 X7.9419 Y25.3086 I-4.3954 J-1.3855
G2 X7.9451 Y25.2971 I-2.7517 J-0.7702
G2 X7.8424 Y25.2649 I-0.3677 J0.9927
G2 X7.5771 Y25.2184 I-0.4243 J1.6406
G2 X7.4672 Y25.2107 I-0.2127 J2.257
G2 X7.3251 Y25.207 I-0.1673 J3.6871
G2 X7.2395 Y25.2073 I-0.0307 J4.4814
G2 X7.0653 Y25.2102 I0.2228 J18.1916
G3 X6.9373 Y25.2127 I-0.538 J-24.6486
G3 X6.8746 Y25.2134 I-0.1011 J-6.0764
G2 X6.4286 Y25.2745 I0.0593 J2.0929
G2 X6.0519 Y25.4176 I0.4081 J1.6412
G2 X5.8682 Y25.5322 I0.6689 J1.2767
G2 X5.7213 Y25.6598 I0.7007 J0.9551
G2 X5.5911 Y25.8214 I0.782 J0.7634
G2 X5.4973 Y25.9989 I0.8645 J0.5704
G2 X5.3841 Y26.3984 I1.8777 J0.7477
G2 X5.3504 Y26.7862 I2.2169 J0.3877
G2 X5.351 Y26.8373 I2.2506 J0
G2 X5.4019 Y27.2691 I2.3021 J-0.0523
G2 X5.5308 Y27.6739 I2.1547 J-0.4633
G3 X5.5334 Y27.6804 I-0.1149 J0.0492
G2 X5.7393 Y28.1437 I3.4519 J-1.2563
G2 X6.0501 Y28.6551 I4.4823 J-2.3745
G2 X6.3384 Y29.0391 I5.0858 J-3.5185
G2 X6.758 Y29.5251 I8.5012 J-6.9153
G1 X6.7586 Y29.5257
G2 X6.8363 Y29.6077 I1.7166 J-1.5498
G2 X6.9406 Y29.7084 I2.651 J-2.6393
G2 X7.0053 Y29.7674 I3.0968 J-3.3319
G2 X7.1396 Y29.8864 I12.4779 J-13.9546
G3 X7.2672 Y29.9993 I-13.3339 J15.2026
G3 X7.3312 Y30.0573 I-3.4012 J3.8126
G3 X7.4359 Y30.1573 I-2.8817 J3.1223
G3 X7.5173 Y30.2412 I-1.9147 J1.9377
G3 X7.7019 Y30.4698 I-1.562 J1.4507
G3 X7.8269 Y30.6848 I-1.2157 J0.8506
G3 X7.8282 Y30.6876 I-0.1129 J0.0536
G3 X7.8563 Y30.8204 I-0.2993 J0.1328
G3 X7.8551 Y30.8486 I-0.3275 J0
G3 X7.8032 Y31.008 I-0.3687 J-0.0318
G3 X7.6965 Y31.1251 I-0.3481 J-0.2102
G3 X7.5627 Y31.1879 I-0.224 J-0.3037
G3 X7.2821 Y31.2818 I-5.3026 J-15.3804
G3 X7.0861 Y31.3424 I-2.2933 J-7.0664
G3 X6.8133 Y31.4158 I-1.7151 J-5.8282
G3 X6.5835 Y31.4651 I-0.9889 J-4.0465
G3 X6.3098 Y31.505 I-0.6548 J-3.533
G3 X6.0654 Y31.5203 I-0.2957 J-2.7722
G3 X5.7914 Y31.5104 I-0.0464 J-2.5229
G3 X5.5392 Y31.4727 I0.1979 J-2.1847
G3 X5.318 Y31.3913 I0.1258 J-0.6828
G3 X5.1149 Y31.2291 I0.4339 J-0.7519
G3 X4.9827 Y31.0527 I0.7795 J-0.7217
G3 X4.8749 Y30.8293 I1.1899 J-0.7116
G3 X4.8743 Y30.8275 I0.117 J-0.044
G3 X4.7965 Y30.5813 I3.1286 J-1.1245
G3 X4.7223 Y30.2731 I4.9004 J-1.3424
G3 X4.6978 Y30.1492 I6.3537 J-1.3208
G3 X4.67 Y29.9945 I9.9347 J-1.8643
G3 X4.6544 Y29.9017 I11.9504 J-2.0508
G3 X4.6246 Y29.7173 I47.5808 J-7.7857
G2 X4.565 Y29.3607 I-24.206 J3.8646
G2 X4.5318 Y29.1863 I-5.9103 J1.0332
G2 X4.4641 Y28.9 I-4.8581 J0.9982
G2 X4.3955 Y28.6775 I-3.0438 J0.8162
G3 X4.3952 Y28.6764 I0.118 J-0.0412
G2 X4.306 Y28.4996 I-0.6704 J0.2273
G2 X4.1732 Y28.357 I-0.5652 J0.393
G2 X3.9994 Y28.2604 I-0.3645 J0.4515
G2 X3.8319 Y28.2358 I-0.1483 J0.426
G2 X3.6967 Y28.2674 I0.0354 J0.4559
G2 X3.5406 Y28.3553 I0.257 J0.639
G2 X3.4261 Y28.4569 I0.5565 J0.7425
G2 X3.2986 Y28.6086 I1.1284 J1.0777
G2 X3.154 Y28.9002 I1.6971 J1.0229
G2 X3.0548 Y29.2251 I1.9351 J0.7684
G2 X3.0097 Y29.561 I2.0412 J0.445
G2 X3.007 Y29.6659 I2.0054 J0.1049
G2 X3.0198 Y29.8926 I2.0081 J0
G3 X3.0203 Y29.8968 I-0.1242 J0.0141
G2 X3.0705 Y30.295 I4.3106 J-0.3421
G2 X3.1621 Y30.7129 I4.823 J-0.8381
G2 X3.2781 Y31.0919 I5.1193 J-1.3589
G2 X3.4349 Y31.498 I6.0115 J-2.0881
G2 X3.6001 Y31.8575 I6.4851 J-2.7627
G2 X3.8067 Y32.2505 I7.9318 J-3.9186
G2 X4.0035 Y32.5875 I8.7341 J-4.8748
G2 X4.245 Y32.9684 I11.3745 J-6.9436
G1 X4.2455 Y32.9691
G2 X4.5166 Y33.3485 I4.3114 J-2.7946
G2 X4.8931 Y33.7933 I6.2585 J-4.9165
G2 X5.053 Y33.9647 I7.5775 J-6.9067
G2 X5.2585 Y34.1762 I11.6866 J-11.1517
G2 X5.3837 Y34.3015 I13.8206 J-13.6787
G2 X5.6373 Y34.552 I55.1497 J-55.5874
G3 X5.8929 Y34.8045 I-54.7882 J55.7281
G3 X6.0203 Y34.932 I-13.794 J13.9022
G3 X6.2299 Y35.1478 I-11.5916 J11.4694
G3 X6.3887 Y35.3181 I-7.552 J7.2016
G3 X6.4635 Y35.4021 I-0.2766 J0.3217
G3 X6.521 Y35.5167 I-0.4089 J0.2766
G3 X6.5472 Y35.6353 I-0.4946 J0.1717
G3 X6.5499 Y35.687 I-0.5065 J0.0518
G3 X6.5452 Y35.7555 I-0.5092 J0
G3 X6.5111 Y35.8779 I-0.4623 J-0.0627
G3 X6.4468 Y35.9795 I-0.3534 J-0.1528
G3 X6.3402 Y36.0621 I-0.2691 J-0.2368
G3 X6.208 Y36.1023 I-0.179 J-0.3519
G3 X6.2049 Y36.1026 I-0.0148 J-0.1241
G3 X5.842 Y36.121 I-0.3945 J-4.2033
G3 X5.4553 Y36.1083 I-0.036 J-4.8032
G3 X5.0929 Y36.0687 I0.3726 J-5.09
G3 X4.7161 Y36.0007 I0.8127 J-5.5836
G3 X4.7069 Y35.9984 I0.0264 J-0.1222
G3 X3.9522 Y35.75 I3.8055 J-12.836
G3 X3.5149 Y35.5769 I2.7189 J-7.505
G3 X3.3821 Y35.5183 I3.1562 J-7.3318
G3 X3.0628 Y35.3635 I2.7369 J-6.0524
G3 X2.7064 Y35.1647 I3.0562 J-5.8976
G3 X2.1648 Y34.789 I2.5329 J-4.2298
G3 X2.1601 Y34.7851 I0.078 J-0.0977
G3 X2.0054 Y34.6246 I0.9005 J-1.0231
G3 X1.8741 Y34.4354 I1.135 J-0.9278
G3 X1.783 Y34.2537 I1.3907 J-0.8111
G3 X1.7041 Y34.0359 I1.9657 J-0.835
G3 X1.6559 Y33.8513 I2.4369 J-0.7356
G3 X1.6109 Y33.616 I3.9972 J-0.8864
G3 X1.5902 Y33.4751 I4.8953 J-0.7885
G3 X1.5559 Y33.1991 I19.0923 J-2.5148
G2 X1.5367 Y33.0386 I-30.5515 J3.5762
G2 X1.5268 Y32.9614 I-7.1694 J0.8774
G3 X1.5263 Y32.9567 I0.1239 J-0.0165
G2 X1.5078 Y32.771 I-18.4759 J1.7502
G2 X1.4675 Y32.3966 I-74.7983 J7.845
G3 X1.4278 Y32.0274 I76.6929 J-8.4321
G3 X1.4092 Y31.8418 I19.2698 J-2.0248
G3 X1.3827 Y31.5316 I16.0628 J-1.5316
G3 X1.3668 Y31.2826 I10.2855 J-0.7808
G3 X1.3561 Y30.8682 I8.0275 J-0.4144
G3 X1.3589 Y30.6578 I8.0382 J0
G3 X1.3965 Y30.1543 I5.2238 J0.1368
G3 X1.5673 Y29.2898 I4.9314 J0.5257
G3 X1.9093 Y28.3976 I5.6062 J1.6371
G3 X2.3437 Y27.6324 I5.7988 J2.7861
G3 X2.9141 Y26.8784 I6.2708 J4.1513
G3 X2.9303 Y26.8571 I1.5111 J1.128
G3 X2.9683 Y26.808 I6.1733 J4.7463
G2 X3.0259 Y26.7329 I-4.0184 J-3.1408
G2 X3.0517 Y26.6972 I-0.9523 J-0.7163
G2 X3.0905 Y26.6366 I-0.7728 J-0.5377
G2 X3.1137 Y26.5924 I-0.4314 J-0.2536
G2 X3.1335 Y26.5394 I-0.3478 J-0.1602
G2 X3.1398 Y26.5121 I-0.2347 J-0.0684
G2 X3.0975 Y26.524 I0.175 J0.7005
G2 X2.928 Y26.5981 I0.2621 J0.8308
G2 X2.7844 Y26.6981 I0.4831 J0.8471
G2 X2.6506 Y26.8312 I0.7149 J0.8521
G2 X2.5871 Y26.9131 I0.8309 J0.7103
G2 X2.5145 Y27.0252 I1.4281 J1.0034
G2 X2.4744 Y27.0959 I1.8305 J1.0871
G2 X2.3945 Y27.2463 I7.868 J4.2753
G3 X2.3144 Y27.3973 I-8.3647 J-4.3411
G3 X2.2708 Y27.4743 I-2.1379 J-1.1592
G3 X2.1905 Y27.5996 I-1.7554 J-1.0362
G3 X2.1154 Y27.698 I-1.1228 J-0.7785
G3 X2.1073 Y27.7069 I-0.0959 J-0.0802
G3 X2.0119 Y27.7739 I-0.2492 J-0.2532
G3 X1.9026 Y27.8029 I-0.1307 J-0.2721
G3 X1.8027 Y27.794 I-0.0224 J-0.3138
G3 X1.7057 Y27.7546 I0.0945 J-0.3717
G3 X1.6298 Y27.6991 I0.2173 J-0.3769
G3 X1.5642 Y27.6261 I0.3351 J-0.3673
G3 X1.5142 Y27.5417 I0.3995 J-0.2935
G3 X1.4856 Y27.459 I0.3892 J-0.181
G3 X1.3738 Y26.966 I2.7748 J-0.8881
G3 X1.3437 Y26.5239 I3.2298 J-0.4421
G3 X1.3452 Y26.4274 I3.2599 J0
G3 X1.4005 Y25.909 I3.3976 J0.1006
G3 X1.5352 Y25.4013 I3.3951 J0.6288
G3 X1.5368 Y25.3968 I0.118 J0.0411
G3 X1.6085 Y25.2589 I0.6884 J0.2699
G3 X1.7066 Y25.1402 I0.6018 J0.398
G3 X1.8112 Y25.0547 I0.5423 J0.5564
G3 X1.9427 Y24.9786 I0.5804 J0.8509
G3 X2.0564 Y24.9303 I0.542 J1.1195
G3 X2.2039 Y24.8825 I0.704 J1.9193
G3 X2.2924 Y24.8592 I0.6805 J2.4054
G3 X2.4636 Y24.8191 I2.2698 J9.3115
G2 X2.6007 Y24.7874 I-2.2764 J-10.1439
G2 X2.6622 Y24.7718 I-0.5121 J-2.1455
G3 X2.665 Y24.771 I0.0325 J0.1207
G2 X2.9647 Y24.68 I-0.6767 J-2.7661
G2 X3.2727 Y24.5491 I-1.1091 J-3.0386
G2 X3.5429 Y24.4026 I-1.5482 J-3.1768
G2 X3.8302 Y24.2145 I-2.2541 J-3.7563
G2 X4.0747 Y24.0287 I-2.8713 J-4.0315
G2 X4.3436 Y23.7984 I-4.1179 J-5.0825
G2 X4.562 Y23.593 I-5.108 J-5.6499
G2 X4.8185 Y23.3338 I-7.8371 J-8.0108
G3 X4.827 Y23.3257 I0.0903 J0.0865
G2 X4.8546 Y23.3009 I-0.6211 J-0.719
G2 X4.9174 Y23.2412 I-3.2158 J-3.4415
G3 X4.9837 Y23.178 I3.6806 J3.7966
G3 X5.02 Y23.1451 I0.9633 J1.0288
G3 X5.0849 Y23.0925 I0.7663 J0.8775
G3 X5.1418 Y23.0536 I0.4446 J0.5896
G3 X5.2179 Y23.0136 I0.3288 J0.5331
G3 X5.2923 Y22.9877 I0.1988 J0.4506
G3 X5.3817 Y22.9735 I0.1167 J0.4474
G3 X5.4723 Y22.977 I0.0275 J0.4652
G3 X5.6551 Y23.0136 I-0.2002 J1.4758
G3 X5.8674 Y23.0818 I-0.5645 J2.1211
G3 X5.9497 Y23.1144 I-0.9887 J2.6126
G3 X6.0501 Y23.1576 I-1.6612 J4.0019
G3 X6.1095 Y23.1845 I-2.1127 J4.7477
G3 X6.2261 Y23.2386 I-8.5762 J18.6386
G2 X6.3596 Y23.3002 I5.8179 J-12.4383
G2 X6.2729 Y23.1889 I-13.5132 J10.4385
G3 X6.1167 Y22.9859 I9.992 J-7.8511
G3 X6.0392 Y22.8787 I2.6169 J-1.9722
G3 X5.8105 Y22.5257 I6.0258 J-4.1553
G3 X5.5902 Y22.1401 I6.9811 J-4.244
G3 X5.4015 Y21.7664 I7.6329 J-4.0897
G3 X5.2212 Y21.3637 I8.8203 J-4.1905
G3 X5.2063 Y21.332 I2.3614 J-1.1281
G3 X5.1752 Y21.264 I9.4931 J-4.3798
G2 X5.1366 Y21.18 I-7.5237 J3.4061
G2 X5.1176 Y21.1403 I-1.7893 J0.8343
G2 X5.0839 Y21.0759 I-1.4412 J0.7116
G2 X5.0562 Y21.0289 I-0.8334 J0.4595
G2 X4.9774 Y20.9263 I-0.5828 J0.3663
G2 X4.9039 Y20.8636 I-0.3065 J0.2852
G2 X4.7776 Y20.7825 I-1.8612 J2.7573
G2 X4.6129 Y20.6858 I-2.7728 J4.5364
G2 X4.5121 Y20.6303 I-3.1585 J5.611
G2 X4.3054 Y20.52 I-12.4792 J23.1263
G3 X4.126 Y20.4244 I14.3924 J-27.2503
G3 X4.0359 Y20.3753 I3.6695 J-6.8381
G3 X3.887 Y20.2902 I3.1296 J-5.6513
G3 X3.7691 Y20.2181 I2.1019 J-3.5685
G3 X3.4868 Y20.0169 I1.7366 J-2.7355
G3 X3.2747 Y19.8239 I1.3629 J-1.7108
G3 X3.0989 Y19.6414 I7.0487 J-6.9653
G3 X2.9628 Y19.4917 I4.5482 J-4.2702
G3 X2.8035 Y19.3018 I3.9801 J-3.5009
G3 X2.6737 Y19.1302 I3.0963 J-2.4768
G3 X2.412 Y18.6964 I2.6586 J-1.8997
G3 X2.2551 Y18.296 I2.0978 J-1.053
G3 X2.1806 Y18.026 I2.4266 J-0.8153
G3 X2.1318 Y17.7295 I2.8415 J-0.6195
G3 X2.1132 Y17.4586 I3.1623 J-0.3534
G3 X2.1119 Y17.3552 I3.9866 J-0.1034
G3 X2.1168 Y17.1559 I3.988 J0
G3 X2.1376 Y16.8934 I4.5414 J0.2272
G3 X2.1783 Y16.5883 I6.2244 J0.6743
G3 X2.2204 Y16.3478 I7.3882 J1.1702
G3 X2.2844 Y16.0353 I12.6228 J2.424
G3 X2.2849 Y16.0331 I0.1221 J0.0266
G2 X2.3017 Y15.9621 I-26.5987 J-6.2988
G2 X2.335 Y15.8191 I-107.3265 J-25.1133
G3 X2.4024 Y15.533 I54.3298 J12.6363
G3 X2.4374 Y15.3892 I13.673 J3.2562
G3 X2.4997 Y15.15 I11.3651 J2.8333
G3 X2.5543 Y14.9592 I7.2361 J1.9671
G3 X2.7177 Y14.4892 I5.5985 J1.6822
G3 X2.8861 Y14.1219 I3.5463 J1.4043
G3 X3.0169 Y13.9062 I1.69 J0.8774
G3 X3.1609 Y13.7306 I1.2378 J0.8678
G3 X3.3573 Y13.5616 I0.9521 J0.9082
G3 X3.5645 Y13.4483 I0.612 J0.8725
G3 X3.5788 Y13.4434 I0.0475 J0.1156
G3 X3.7455 Y13.4242 I0.1449 J0.5268
G3 X3.9089 Y13.4567 I-0.0214 J0.5358
G3 X4.0403 Y13.5245 I-0.205 J0.5583
G3 X4.1652 Y13.6312 I-0.4409 J0.6427
G3 X4.258 Y13.7469 I-0.6521 J0.6179
G3 X4.3365 Y13.8847 I-0.8725 J0.5882
G3 X4.3917 Y14.0268 I-0.9593 J0.4543
G3 X4.4224 Y14.1648 I-0.8517 J0.2622
G3 X4.4232 Y14.1717 I-0.1238 J0.0174
G3 X4.4399 Y14.5367 I-4.6824 J0.3975
G3 X4.4401 Y14.5868 I-7.2616 J0.0502
G3 X4.429 Y14.9885 I-7.2618 J0
G3 X4.4173 Y15.1685 I-9.2889 J-0.5147
G3 X4.3987 Y15.3925 I-14.4855 J-1.0845
G3 X4.3861 Y15.5265 I-17.3604 J-1.5702
G3 X4.3594 Y15.793 I-69.0358 J-6.7822
G2 X4.3249 Y16.1423 I52.0041 J5.3118
G2 X4.3246 Y16.1456 I12.8075 J1.2214
G2 X4.6279 Y16.0762 I-19.1592 J-84.4032
G3 X4.9391 Y16.005 I19.7853 J85.7324
G3 X5.0955 Y15.9701 I4.8892 J21.5418
G3 X5.3571 Y15.9147 I3.945 J17.9853
G3 X5.5676 Y15.8737 I2.3609 J11.5634
G3 X6.0986 Y15.7912 I1.681 J9.0712
G3 X6.5316 Y15.7527 I0.747 J5.9462
G3 X6.533 Y15.7526 I0.0065 J0.1248
G2 X7.1245 Y15.6565 I-0.1047 J-2.5139
G2 X7.6911 Y15.4189 I-0.7301 J-2.5352
G2 X8.1909 Y15.0513 I-1.2698 J-2.25
G2 X8.5667 Y14.5962 I-1.6082 J-1.7106
G1 X8.567 Y14.5958
G2 X8.6436 Y14.4547 I-0.9587 J-0.6121
G2 X8.6828 Y14.3431 I-0.6027 J-0.2742
G2 X8.6976 Y14.224 I-0.4704 J-0.1191
G2 X8.6974 Y14.2088 I-0.4852 J0
G2 X8.6846 Y14.127 I-0.3337 J0.0104
G2 X8.5728 Y14.0252 I-1.0765 J1.0692
G2 X8.3908 Y13.8893 I-1.5138 J1.8375
G2 X8.3135 Y13.8388 I-1.7367 J2.5734
G2 X8.2134 Y13.7771 I-2.6538 J4.1963
G2 X8.1524 Y13.741 I-3.0899 J5.1519
G2 X8.0276 Y13.6686 I-12.3629 J21.1759
G3 X7.8144 Y13.5435 I7.3414 J-12.7464
G3 X7.7072 Y13.4768 I1.9223 J-3.2116
G3 X7.5333 Y13.3561 I1.6925 J-2.6226
G3 X7.3988 Y13.2466 I1.2268 J-1.6445
G2 X7.3941 Y13.2424 I-1.2697 J1.4321
G2 X7.3839 Y13.2334 I-5.5236 J6.2718
G3 X7.343 Y13.1967 I1.6828 J-1.917
G3 X7.3201 Y13.1748 I0.5016 J-0.5472
G3 X7.2827 Y13.134 I0.4394 J-0.4401
G3 X7.254 Y13.0954 I0.3145 J-0.2634
G3 X7.2246 Y13.0404 I0.2957 J-0.1936
G3 X7.2069 Y12.9829 I0.2681 J-0.1143
G3 X7.2015 Y12.9279 I0.2766 J-0.055
G3 X7.2018 Y12.9135 I0.282 J0
G3 X7.2134 Y12.8442 I0.3061 J0.0156
G3 X7.2409 Y12.795 I0.1201 J0.0347
G3 X7.2834 Y12.7499 I1.0573 J0.9571
G3 X7.3662 Y12.6679 I3.845 J3.7974
G2 X7.4067 Y12.6283 I-4.2116 J-4.3428
G2 X7.3932 Y12.6038 I-1.2257 J0.6589
G2 X7.3172 Y12.4787 I-1.9583 J1.1041
G2 X7.2674 Y12.4051 I-2.2981 J1.5007
G2 X7.1603 Y12.2548 I-9.3873 J6.573
G3 X7.0885 Y12.155 I14.4395 J-10.4612
G3 X7.0525 Y12.1038 I3.6832 J-2.6299
G3 X6.994 Y12.0168 I3.1013 J-2.1503
G3 X6.9487 Y11.9447 I2.0391 J-1.3314
G3 X6.8482 Y11.7551 I1.639 J-0.9903
G3 X6.7841 Y11.5861 I1.1926 J-0.5489
G3 X6.7788 Y11.55 I0.1196 J-0.0362
G3 X6.7978 Y11.4836 I0.125 J0
G3 X6.8309 Y11.4366 I0.4541 J0.2845
G3 X6.8739 Y11.3865 I0.6089 J0.4794
G3 X6.9008 Y11.3589 I0.6699 J0.6269
G3 X6.9511 Y11.3105 I2.3468 J2.3887
G2 X7.0109 Y11.2521 I-1.5792 J-1.6758
G2 X7.0338 Y11.2271 I-0.3256 J-0.3213
G2 X7.0647 Y11.1847 I-0.2648 J-0.2252
G2 X7.0682 Y11.1788 I-0.1615 J-0.0999
G2 X7.0596 Y11.1294 I-1.106 J0.1652
G2 X7.0377 Y11.0343 I-1.4274 J0.2792
G2 X7.0159 Y10.9593 I-1.6322 J0.4347
G2 X6.9783 Y10.9697 I0.6185 J2.3161
G2 X6.9144 Y10.9887 I0.7778 J2.7333
G2 X6.8351 Y11.0141 I1.3687 J4.4137
G3 X6.2336 Y11.1777 I-1.1584 J-3.0709
G3 X5.6075 Y11.225 I-0.5605 J-3.2552
G3 X4.9641 Y11.1456 I0.0628 J-3.1567
G3 X4.3881 Y10.9448 I0.622 J-2.7107
G3 X4.38 Y10.9406 I0.0538 J-0.1128
G3 X4.1097 Y10.7627 I1.257 J-2.2052
G3 X3.8518 Y10.5428 I1.6843 J-2.2358
G3 X3.6366 Y10.3125 I2.0824 J-2.1613
G3 X3.4306 Y10.0419 I2.6943 J-2.2646
G3 X3.1288 Y9.523 I3.2843 J-2.2579
G3 X2.9467 Y9.1037 I4.9152 J-2.3835
G3 X2.8647 Y8.876 I5.0973 J-1.9642
G3 X2.7909 Y8.6289 I2.5422 J-0.8945
G3 X2.7653 Y8.5152 I2.6161 J-0.6475
G3 X2.7004 Y8.0641 I3.9615 J-0.8005
G3 X2.6878 Y7.8828 I5.1699 J-0.4486
G3 X2.6793 Y7.6567 I8.1078 J-0.4182
G3 X2.6771 Y7.5213 I9.752 J-0.2308
G3 X2.6754 Y7.253 I38.6941 J-0.3785
G2 X2.6732 Y6.9554 I-34.1164 J0.0971
G2 X2.6728 Y6.9215 I-8.3013 J0.096
G2 X2.4544 Y6.9089 I-1.0381 J16.0649
G3 X2.188 Y6.8928 I0.7066 J-13.8575
G3 X2.052 Y6.8806 I0.248 J-3.5285
G3 X1.8257 Y6.8469 I0.3207 J-2.9359
G3 X1.6428 Y6.8033 I0.3632 J-1.9271
G3 X1.6335 Y6.8007 I0.8387 J-2.9848
G3 X1.2539 Y6.6655 I0.848 J-2.9822
G3 X1.1656 Y6.626 I1.3896 J-3.2229
G3 X0.863 Y6.4671 I1.478 J-3.1833
G3 X0.5206 Y6.2394 I1.9051 J-3.236
G3 X0.1861 Y5.9615 I2.5238 J-3.3782
G3 X0.1849 Y5.9605 I0.0847 J-0.0919
G3 X0.0674 Y5.8416 I1.6785 J-1.7765
G3 X-0.0005 Y5.7587 I0.6712 J-0.6195
G3 X-0.0818 Y5.6148 I0.5897 J-0.4281
G3 X-0.12 Y5.4726 I0.4923 J-0.2085
G3 X-0.121 Y5.4571 I0.124 J-0.0155
G3 X-0.099 Y5.3862 I0.125 J0
G3 X-0.0444 Y5.3209 I0.3753 J0.2583
G3 X0.0273 Y5.2602 I0.4273 J0.4312
G3 X0.0728 Y5.2298 I0.4185 J0.5787
G3 X0.1561 Y5.181 I1.3372 J2.1839
G2 X0.2182 Y5.1451 I-1.4163 J-2.5219
G2 X0.2443 Y5.1287 I-0.3153 J-0.5301
G2 X0.2777 Y5.1043 I-0.2683 J-0.4037
G2 X0.2785 Y5.083 I-1.4335 J-0.0677
G2 X0.2817 Y4.9304 I-6.5095 J-0.2106
G3 X0.2836 Y4.809 I8.9729 J0.08
G3 X0.2859 Y4.7461 I2.3118 J0.0519
G3 X0.2941 Y4.6402 I1.9149 J0.0952
G3 X0.3062 Y4.5545 I1.2193 J0.1286
G3 X0.3693 Y4.344 I0.939 J0.1667
G3 X0.4692 Y4.1776 I0.6663 J0.287
G3 X0.6331 Y3.9856 I1.5726 J1.1767
G3 X0.8328 Y3.8036 I1.5993 J1.5539
G3 X1.0258 Y3.6628 I1.5509 J1.9236
G3 X1.26 Y3.5224 I1.7963 J2.7309
G3 X1.4612 Y3.4204 I1.8465 J3.394
G3 X1.7194 Y3.3061 I2.6088 J5.5434
G3 X1.8755 Y3.2433 I2.83 J6.8115
G3 X2.1839 Y3.1254 I10.4197 J26.7881
G2 X2.2862 Y3.0869 I-29.1663 J-77.6106
G2 X2.3345 Y3.0686 I-7.1517 J-18.9546
G3 X2.391 Y3.047 I0.3501 J0.8312
G3 X2.4637 Y3.0242 I0.4542 J1.3194
G3 X2.5071 Y3.0125 I0.4594 J1.6164
G3 X2.5904 Y2.9918 I1.6035 J6.2765
G2 X2.7175 Y2.9588 I-0.8881 J-3.6787
G2 X2.772 Y2.9415 I-0.2152 J-0.773
G2 X2.7942 Y2.933 I-0.207 J-0.58
G2 X2.793 Y2.9317 I-20.3008 J17.1891
G3 X2.6658 Y2.7793 I11.0917 J-9.3928
G3 X2.6019 Y2.6996 I2.8983 J-2.3872
G3 X2.5 Y2.5611 I2.4549 J-1.9123
G3 X2.4253 Y2.4448 I1.6115 J-1.118
G3 X2.3468 Y2.296 I1.4272 J-0.8478
G3 X2.2921 Y2.1573 I1.1528 J-0.5352
G3 X2.2511 Y1.9931 I1.105 J-0.3628
G3 X2.2356 Y1.8344 I1.0614 J-0.184
G3 X2.2336 Y1.7872 I0.5764 J-0.0472
G3 X2.2581 Y1.6209 I0.5784 J0
G3 X2.3628 Y1.4097 I0.6721 J0.2018
G3 X2.5006 Y1.2611 I0.6933 J0.5047
G3 X2.6825 Y1.1364 I0.6898 J0.8111
G3 X2.8259 Y1.0677 I0.5434 J0.9498
G3 X2.9876 Y1.0167 I0.4521 J1.1512
G3 X3.1339 Y0.9896 I0.3223 J1.3343
G3 X3.3027 Y0.9757 I0.2335 J1.8063
G3 X3.4415 Y0.9753 I0.0767 J2.1537
G3 X3.6136 Y0.9846 I-0.0979 J3.3936
G3 X3.7153 Y0.994 I-0.3235 J4.0553
G3 X3.9109 Y1.0158 I-1.6141 J15.3544
G2 X3.9124 Y1.016 I225.1265 J-1907.3975
G1 X3.9131 Y1.0161
G3 X3.916 Y1.0165 I-0.0147 J0.1241
G2 X3.9905 Y1.0269 I2.8222 J-19.9533
G2 X4.1407 Y1.0474 I11.1083 J-80.7071
G3 X4.3963 Y1.0828 I-6.5346 J48.1399
G3 X4.525 Y1.1016 I-1.7128 J12.1345
G3 X4.7395 Y1.1366 I-1.535 J10.099
G3 X4.911 Y1.1688 I-1.1209 J6.4481
G3 X5.3364 Y1.2736 I-1.0081 J5.0042
G3 X5.6724 Y1.3917 I-0.9367 J3.2013
G3 X5.7496 Y1.424 I-1.4727 J3.6394
G3 X5.9013 Y1.4901 I-6.1419 J14.2939
G2 X6.0262 Y1.5448 I7.4679 J-16.8825
G2 X6.0875 Y1.5708 I1.7926 J-4.1348
G2 X6.1901 Y1.6118 I1.4278 J-3.4314
G2 X6.2712 Y1.641 I0.8223 J-2.1546
G2 X6.4318 Y1.6871 I0.5641 J-1.6621
G2 X6.4216 Y1.6655 I-2.3654 J1.1078
G2 X6.3856 Y1.5929 I-2.882 J1.3819
G2 X6.3082 Y1.4438 I-11.8606 J6.0619
G3 X6.2357 Y1.3045 I13.0469 J-6.8771
G3 X6.1999 Y1.2328 I3.3245 J-1.7074
G3 X6.1438 Y1.1108 I2.7903 J-1.3583
G3 X6.1031 Y1.0098 I1.8251 J-0.7927
G3 X6.0309 Y0.7457 I1.4623 J-0.5421
G3 X6.0126 Y0.5422 I1.1232 J-0.2035
G3 X6.0128 Y0.5203 I1.1415 J0
G3 X6.0076 Y0.4491 I0.4886 J-0.0712
G3 X6.0125 Y0.3801 I0.4938 J0
G3 X6.0572 Y0.2301 I0.5199 J0.0735
G3 X6.1344 Y0.1086 I0.5171 J0.2431
G3 X6.2431 Y0.005 I0.4938 J0.4092
G3 X6.5269 Y-0.1153 I0.3844 J0.512
G3 X6.8035 Y-0.0834 I0.0812 J0.5106
G3 X7.0452 Y0.0102 I-0.5075 J1.6699
G3 X7.3252 Y0.1652 I-1.1142 J2.344
G3 X7.4312 Y0.2355 I-1.7897 J2.81
G3 X7.5597 Y0.3274 I-2.9618 J4.2805
G3 X7.6352 Y0.3839 I-3.713 J5.0327
G3 X7.7829 Y0.4972 I-14.9679 J19.66
G2 X7.9617 Y0.6339 I12.0947 J-15.6403
G2 X8.0496 Y0.6987 I2.8607 J-3.7877
G3 X8.0506 Y0.6994 I-0.073 J0.1015
G3 X8.2097 Y0.8211 I-3.0395 J4.1405
G3 X8.4021 Y0.9792 I-4.9856 J6.2638
G3 X8.5151 Y1.0765 I-6.2206 J7.3352
G3 X8.5999 Y1.1509 I-25.1929 J28.79
G3 X8.737 Y1.2722 I-25.2777 J28.7156
G2 X8.9283 Y1.4412 I29.0935 J-32.7333
G2 X8.9747 Y1.4818 I7.1383 J-8.1263
G2 X9.0237 Y1.5241 I7.0919 J-8.1669
G2 X9.1847 Y1.6589 I5.8368 J-6.8033
G2 X9.3148 Y1.7622 I3.5798 J-4.376
G2 X9.652 Y1.9975 I2.665 J-3.4604
G2 X9.9399 Y2.1563 I1.5105 J-2.3981
G3 X9.9447 Y2.1587 I-0.0539 J0.1128
G2 X10.3746 Y2.3594 I2.1359 J-4.0149
G2 X10.7009 Y2.4654 I0.9127 J-2.2553
G2 X10.9068 Y2.5053 I0.4893 J-1.9707
G2 X11.0901 Y2.5204 I0.2216 J-1.5715
G2 X11.29 Y2.5113 I0.0346 J-1.4344
G2 X11.4546 Y2.4811 I-0.1462 J-1.2613
G2 X11.5194 Y2.4341 I-0.6782 J-1.0045
G2 X11.6196 Y2.351 I-1.2164 J-1.5678
G2 X11.6778 Y2.2976 I-1.6142 J-1.8204
G2 X11.7969 Y2.1831 I-7.0333 J-7.4305
G3 X11.887 Y2.0958 I9.8272 J10.0519
G3 X11.9337 Y2.0518 I2.4784 J2.5808
G3 X12.0139 Y1.9801 I2.0258 J2.1866
G3 X12.0815 Y1.9245 I1.2559 J1.4578
G3 X12.2649 Y1.801 I0.9355 J1.1914
G3 X12.4376 Y1.7215 I0.5354 J0.936
G3 X13.0852 Y1.5351 I1.8242 J5.1181
G3 X13.7412 Y1.4324 I1.1415 J5.1463
G3 X14.4226 Y1.415 I0.4712 J5.0954
G3 X15.0773 Y1.4874 I-0.1959 J4.7663
G3 X15.0826 Y1.4885 I-0.0223 J0.123
G2 X15.1171 Y1.4962 I1.0724 J-4.7328
G2 X15.1886 Y1.5117 I4.3487 J-19.8627
G3 X15.3111 Y1.5387 I-2.6516 J12.3229
G3 X15.3742 Y1.5536 I-0.7196 J3.1895
G3 X15.4797 Y1.5818 I-0.6532 J2.6493
G3 X15.5642 Y1.6086 I-0.4871 J1.6829
G3 X15.7706 Y1.6997 I-0.4425 J1.2821
G3 X15.9274 Y1.8076 I-0.4395 J0.8066
G3 X15.9327 Y1.8124 I-0.0811 J0.0951
G3 X15.9952 Y1.8901 I-0.2669 J0.2784
G3 X16.0348 Y1.9804 I-0.3161 J0.1927
G3 X16.0495 Y2.0672 I-0.3751 J0.1079
G3 X16.0502 Y2.0924 I-0.4654 J0.0252
G3 X16.0453 Y2.1598 I-0.4661 J0
G3 X15.9994 Y2.3133 I-0.547 J-0.0799
G3 X15.908 Y2.4574 I-0.5997 J-0.2793
G3 X15.5838 Y2.7736 I-1.5821 J-1.2978
G3 X15.1473 Y3.0511 I-1.663 J-2.1339
G3 X14.75 Y3.2211 I-1.4787 J-2.9073
G3 X14.2521 Y3.3662 I-1.5846 J-4.509
G3 X14.1109 Y3.3924 I-0.2756 J-1.0934
G3 X13.9405 Y3.4038 I-0.1941 J-1.6171
G3 X13.839 Y3.4026 I-0.0283 J-1.9385
G3 X13.6451 Y3.3928 I0.2817 J-7.4514
G2 X13.508 Y3.3849 I-0.6351 J9.9356
G2 X13.4423 Y3.3826 I-0.1188 J2.3729
G2 X13.3339 Y3.3832 I-0.0435 J1.9463
G2 X13.2772 Y3.3864 I0.0399 J1.1983
G2 X13.148 Y3.4788 I0.5454 J0.8986
G2 X13.0338 Y3.5951 I0.537 J0.6418
G2 X12.9417 Y3.7447 I0.54 J0.4357
G2 X12.8997 Y3.8889 I0.4842 J0.2192
G3 X12.8992 Y3.8921 I-0.1238 J-0.0176
G1 X12.8991 Y3.8929
G2 X12.8718 Y4.063 I11.3242 J1.9012
G2 X12.8603 Y4.1471 I2.8497 J0.4346
G2 X12.8473 Y4.2878 I2.3436 J0.287
G2 X12.8446 Y4.3745 I1.3965 J0.0867
G2 X12.8447 Y4.3947 I1.3992 J0
G2 X12.8536 Y4.521 I1.1373 J-0.0164
G2 X12.8733 Y4.6228 I0.789 J-0.0998
G2 X12.9114 Y4.731 I0.6752 J-0.1769
G2 X12.9635 Y4.8248 I0.5677 J-0.2541
G3 X12.9702 Y4.8358 I-0.1036 J0.0699
G2 X13.0372 Y4.9564 I3.7165 J-1.9862
G2 X13.1854 Y5.2085 I16.0377 J-9.2583
G3 X13.3286 Y5.4516 I-17.6217 J10.5471
G3 X13.3988 Y5.5765 I-4.5028 J2.6118
G3 X13.5077 Y5.7909 I-3.7641 J2.0469
G3 X13.5832 Y5.9667 I-2.4042 J1.1375
G3 X13.6557 Y6.1867 I-2.0861 J0.8091
G3 X13.6975 Y6.3862 I-1.639 J0.4473
G3 X13.7141 Y6.6127 I-1.5365 J0.2265
G3 X13.7141 Y6.616 I-1.5531 J0
G3 X13.6964 Y6.8384 I-1.4472 J-0.0031
G3 X13.6921 Y6.8568 I-0.1235 J-0.0195
G3 X13.6233 Y7.009 I-0.6835 J-0.2172
G3 X13.5221 Y7.1394 I-0.5963 J-0.3584
G3 X13.4117 Y7.2317 I-0.5389 J-0.5319
G3 X13.2698 Y7.3134 I-0.5839 J-0.8507
G3 X13.1474 Y7.3637 I-0.5408 J-1.1409
G3 X12.9879 Y7.4127 I-0.6939 J-1.9756
G3 X12.8925 Y7.4359 I-0.6517 J-2.4689
G3 X12.7107 Y7.4746 I-2.071 J-9.2771
G2 X12.668 Y7.4834 I3.3879 J16.7058
G2 X12.6624 Y7.519 I13.2717 J2.0904
G2 X12.6615 Y7.5253 I1.3584 J0.2102
G2 X12.6748 Y7.9984 I17.5648 J-0.2595
G2 X12.6975 Y8.3837 I11.2389 J-0.4691
G2 X12.7443 Y8.8475 I9.5252 J-0.7255
G2 X12.8054 Y9.2439 I7.0488 J-0.8845
G2 X12.9031 Y9.6858 I6.158 J-1.1288
G2 X13.0201 Y10.0724 I4.8508 J-1.2572
G2 X13.185 Y10.4822 I4.3171 J-1.4991
G2 X13.3647 Y10.8275 I3.6156 J-1.6622
G2 X13.374 Y10.8345 I0.2686 J-0.3467
G2 X13.4107 Y10.8598 I0.4659 J-0.6357
G2 X13.434 Y10.8745 I0.5393 J-0.8305
G2 X13.4862 Y10.9059 I2.3045 J-3.7744
G3 X13.5887 Y10.9698 I-1.3136 J2.2197
G3 X13.6437 Y11.0098 I-0.3886 J0.5916
G3 X13.7269 Y11.0914 I-0.3729 J0.4637
G3 X13.7843 Y11.1785 I-0.3497 J0.293
G3 X13.8837 Y11.3811 I-2.6374 J1.4201
G3 X13.966 Y11.5873 I-2.6016 J1.1573
G3 X14.0336 Y11.8069 I-2.5956 J0.9198
G3 X14.0805 Y12.0224 I-2.4723 J0.6501
G3 X14.0956 Y12.1805 I-0.8451 J0.1608
G3 X14.0956 Y12.1836 I-0.9432 J0.0031
G3 X14.0815 Y12.3462 I-0.9432 J0
G3 X14.0465 Y12.4876 I-1.0317 J-0.1806
G3 X13.9863 Y12.6419 I-1.3309 J-0.43
G3 X13.9241 Y12.7637 I-1.5095 J-0.694
G3 X13.8376 Y12.9061 I-2.2101 J-1.2457
G3 X13.7748 Y12.9985 I-2.6027 J-1.7014
G3 X13.6718 Y13.1409 I-6.4526 J-4.5569
G3 X13.6623 Y13.1522 I-0.1005 J-0.0744
G3 X13.5163 Y13.2878 I-1.0754 J-1.012
G3 X13.3466 Y13.4081 I-1.0202 J-1.2598
G3 X13.1852 Y13.4964 I-0.9316 J-1.5116
G3 X12.9935 Y13.5782 I-1.006 J-2.0898
G3 X12.8304 Y13.6336 I-0.9608 J-2.5625
G3 X12.623 Y13.6912 I-1.2692 J-4.1647
G3 X12.4982 Y13.721 I-1.2843 J-5.107
G3 X12.2515 Y13.7751 I-4.5694 J-20.2448
G2 X11.9928 Y13.8321 I3.8935 J18.2836
G2 X11.8703 Y13.8619 I0.9625 J4.2248
G3 X11.8618 Y13.8638 I-0.0313 J-0.121
G2 X11.7434 Y13.9096 I0.0631 J0.3389
G2 X11.6569 Y13.9898 I0.1617 J0.2611
G2 X11.6291 Y14.0389 I0.1998 J0.1456
G2 X11.6161 Y14.0848 I0.1778 J0.0754
G2 X11.6139 Y14.1125 I0.1789 J0.0277
G2 X11.6153 Y14.1348 I0.181 J0
G2 X11.6296 Y14.1896 I0.2153 J-0.0267
G3 X11.6327 Y14.1982 I-0.1158 J0.047
G2 X11.7559 Y14.5099 I2.4882 J-0.8033
G2 X11.9533 Y14.8775 I3.6059 J-1.7001
G2 X12.0464 Y15.025 I4.2795 J-2.5961
G2 X12.164 Y15.1989 I6.0168 J-3.9432
G2 X12.2559 Y15.3281 I7.1977 J-5.0233
G2 X12.3912 Y15.5122 I14.6526 J-10.6247
G1 X12.3916 Y15.5127
G2 X12.584 Y15.747 I2.3482 J-1.7325
G2 X12.8527 Y16.0177 I3.36 J-3.0654
G2 X12.9669 Y16.1208 I4.0008 J-4.3176
G2 X13.1141 Y16.2476 I6.153 J-6.9986
G2 X13.2039 Y16.3224 I7.2397 J-8.5894
G2 X13.3862 Y16.4721 I28.8817 J-34.9988
G3 X13.6203 Y16.6648 I-22.5225 J27.5835
G3 X13.7368 Y16.7634 I-5.7029 J6.8643
G3 X13.7388 Y16.7651 I-0.0815 J0.0948
G2 X13.8316 Y16.8391 I0.6812 J-0.7592
G2 X13.9097 Y16.8863 I0.3691 J-0.5228
G2 X13.9744 Y16.9139 I0.2344 J-0.4588
G2 X13.9779 Y16.873 I-4.0695 J-0.3662
G2 X13.9917 Y16.6516 I-6.4771 J-0.5173
G2 X13.9967 Y16.5181 I-7.8472 J-0.3577
G2 X14.0033 Y16.2472 I-31.9309 J-0.9116
G3 X14.0085 Y16.0201 I38.6646 J0.7757
G3 X14.0121 Y15.9058 I9.7228 J0.2522
G3 X14.0216 Y15.7148 I8.0935 J0.3052
G3 X14.0333 Y15.5615 I5.1832 J0.3181
G3 X14.0865 Y15.1796 I4.0467 J0.3689
G3 X14.163 Y14.8722 I2.6707 J0.5021
G3 X14.2051 Y14.7674 I0.5695 J0.1677
G3 X14.2696 Y14.6657 I0.6087 J0.3145
G3 X14.3502 Y14.5771 I0.5573 J0.4261
G3 X14.4427 Y14.5055 I0.4489 J0.4847
G3 X14.554 Y14.4494 I0.3291 J0.5138
G3 X14.6675 Y14.4203 I0.1829 J0.4787
G3 X14.797 Y14.4205 I0.0641 J0.4688
G3 X14.9205 Y14.4558 I-0.0637 J0.4565
G3 X14.9283 Y14.4596 I-0.0508 J0.1142
G3 X15.0826 Y14.5669 I-0.3691 J0.6955
G3 X15.2333 Y14.7293 I-0.7724 J0.8681
G3 X15.2839 Y14.7995 I-1.1966 J0.9147
G3 X15.3413 Y14.8885 I-1.9299 J1.3067
G3 X15.3735 Y14.9425 I-2.3707 J1.4527
G3 X15.433 Y15.046 I-8.9815 J5.228
G3 X15.4353 Y15.0504 I-0.1087 J0.0616
G3 X15.7786 Y15.8521 I-5.4298 J2.7991
G3 X16.0029 Y16.6908 I-5.7196 J1.9788
G3 X16.1041 Y17.57 I-5.8064 J1.1138
G3 X16.1084 Y17.7896 I-5.5297 J0.2196
G3 X16.0717 Y18.4262 I-5.534 J0
G3 X16.0712 Y18.43 I-0.1242 J-0.0144
G3 X16.068 Y18.4513 I-3.9842 J-0.5867
G3 X15.962 Y18.9397 I-3.981 J-0.608
G3 X15.9482 Y18.9873 I-3.875 J-1.0963
G3 X15.7766 Y19.4221 I-2.5471 J-0.7546
G3 X15.6383 Y19.6607 I-2.0218 J-1.0123
G3 X15.4854 Y19.86 I-1.5416 J-1.0238
G3 X15.2877 Y20.051 I-1.2824 J-1.1295
G3 X15.0723 Y20.1999 I-1.0031 J-1.2212
G3 X14.7818 Y20.3652 I-1.6453 J-2.5536
G3 X14.4503 Y20.5096 I-1.5642 J-3.139
G3 X14.1451 Y20.61 I-1.3662 J-3.6388
G3 X13.7895 Y20.6972 I-1.3889 J-4.895
G3 X13.4885 Y20.7516 I-1.211 J-5.8392
G3 X13.1137 Y20.8016 I-1.402 J-9.0797
G3 X12.8715 Y20.8262 I-1.2555 J-11.1594
G3 X12.5055 Y20.8574 I-3.1965 J-35.2804
G2 X12.5015 Y20.8652 I0.3398 J0.1764
G2 X12.4686 Y20.9456 I0.5798 J0.2846
G2 X12.4531 Y20.9977 I0.7762 J0.2586
G2 X12.4242 Y21.1166 I3.6026 J0.9398
G3 X12.3999 Y21.2187 I-4.6865 J-1.0594
G3 X12.3865 Y21.2682 I-1.2115 J-0.3018
G3 X12.1712 Y22.0014 I-5.8318 J-1.3143
G3 X11.8609 Y22.7086 I-5.678 J-2.0699
G3 X11.4606 Y23.3733 I-5.3368 J-2.7612
G3 X10.985 Y23.9708 I-4.7875 J-3.3224
G3 X10.9066 Y24.05 I-0.8094 J-0.7222
G3 X10.8043 Y24.1359 I-1.0825 J-1.1866
G3 X10.7405 Y24.1829 I-1.1686 J-1.5173
G3 X10.616 Y24.269 I-4.2369 J-5.9989
G2 X10.4762 Y24.3664 I3.3573 J4.9677
G2 X10.4135 Y24.4142 I0.7999 J1.114
G2 X10.4095 Y24.4174 I0.6959 J0.8602
G2 X10.9593 Y24.5012 I4.3368 J-26.5925
G1 Z-0.2 F30
G2 X11.9451 Y24.6294 I5.9363 J-41.816 F60
G2 X12.3404 Y24.6746 I6.3457 J-53.7651
G2 X12.8353 Y24.7278 I9.307 J-84.1646
G2 X13.1324 Y24.7585 I10.5756 J-101.0719
G2 X13.727 Y24.8185 I41.1078 J-404.3488
G3 X14.0318 Y24.8491 I-78.9631 J788.2197
G3 X14.1841 Y24.8644 I-19.8024 J196.9022
G3 X14.293 Y24.9593 I-0.0126 J0.1244
G3 X14.3258 Y25.1515 I-1.372 J0.333
G3 X14.3363 Y25.3616 I-2.0953 J0.2102
G3 X14.3362 Y25.3856 I-2.1059 J0
G3 X14.3335 Y25.4783 I-2.6898 J-0.0306
G3 X14.3267 Y25.5926 I-4.1681 J-0.1913
G3 X14.3212 Y25.6607 I-4.984 J-0.366
G3 X14.3091 Y25.7941 I-19.513 J-1.7014
G2 X14.2996 Y25.8976 I24.2883 J2.2852
G2 X14.2953 Y25.9482 I5.8991 J0.5297
G3 X14.2949 Y25.9519 I-0.1246 J-0.0101
G2 X14.2872 Y26.0223 I68.8651 J7.6517
G2 X14.2717 Y26.1634 I276.7962 J30.469
G3 X14.2218 Y26.6083 I-88.6934 J-9.7174
G3 X14.195 Y26.8318 I-22.315 J-2.5582
G3 X14.1448 Y27.2042 I-18.5701 J-2.3177
G3 X14.0978 Y27.5014 I-11.8337 J-1.7189
G3 X13.9406 Y28.2389 I-9.1665 J-1.568
G3 X13.7607 Y28.8181 I-5.8106 J-1.4869
G3 X13.7117 Y28.9099 I-0.315 J-0.1091
G3 X13.6358 Y28.9814 I-0.2482 J-0.1874
G3 X13.5504 Y29.0217 I-0.1793 J-0.2695
G3 X13.4551 Y29.0371 I-0.1044 J-0.3445
G3 X13.2693 Y28.994 I-0.0096 J-0.3811
G3 X13.1371 Y28.8742 I0.1628 J-0.3123
G3 X13.0634 Y28.7815 I4.2509 J-3.4559
G3 X12.9687 Y28.6574 I6.7154 J-5.2225
G3 X12.913 Y28.5823 I8.1627 J-6.1109
G3 X12.8036 Y28.4326 I32.6248 J-23.9607
G2 X12.6237 Y28.1885 I-19.6863 J14.3199
G2 X12.5331 Y28.0702 I-4.7902 J3.5765
G2 X12.3755 Y27.8797 I-3.8948 J3.0622
G2 X12.2423 Y27.736 I-2.3798 J2.0713
G3 X12.2413 Y27.735 I0.089 J-0.0878
G2 X11.8953 Y27.4022 I-4.5541 J4.3898
G2 X11.4967 Y27.0715 I-4.8846 J5.4819
G2 X11.1142 Y26.7939 I-4.9137 J6.3668
G2 X10.6703 Y26.508 I-5.6368 J8.2656
G2 X10.2677 Y26.2747 I-5.8799 J9.6828
G2 X9.7881 Y26.0208 I-7.4276 J13.447
G2 X9.393 Y25.8264 I-8.2498 J16.268
G2 X9.2138 Y25.7416 I-13.1079 J27.4722
G2 X9.2926 Y25.861 I8.1442 J-5.2884
G3 X9.3803 Y25.9938 I-9.4241 J6.3189
G3 X9.4235 Y26.0624 I-2.3929 J1.5563
G3 X9.4912 Y26.1809 I-1.9989 J1.2206
